( Made using CamBam - http://www.cambam.co.uk )
( polivoks_vcf_panel 1/3/2016 2:02:35 PM )
( T3 : 3.175 )
G21 G90 G64 G40
G0 Z3.0
( T3 : 3.175 )
T3 M6
( holes )
G17
M3 S1000
G0 X25.4693 Y125.3157
G0 Z3.0
G0 X25.4818 Y125.3157
G1 F1000.0 Z0.0
G2 F2000.0 X25.463 Y125.3049 Z-0.0333 I-0.0125 J0.0
G2 Y125.3265 Z-0.0667 I0.0062 J0.0108
G2 X25.4818 Y125.3157 Z-0.1 I0.0063 J-0.0108
G2 X25.463 Y125.3049 Z-0.1333 I-0.0125 J0.0
G2 Y125.3265 Z-0.1667 I0.0062 J0.0108
G2 X25.4818 Y125.3157 Z-0.2 I0.0063 J-0.0108
G2 X25.463 Y125.3049 Z-0.2333 I-0.0125 J0.0
G2 Y125.3265 Z-0.2667 I0.0062 J0.0108
G2 X25.4818 Y125.3157 Z-0.3 I0.0063 J-0.0108
G2 X25.463 Y125.3049 Z-0.3333 I-0.0125 J0.0
G2 Y125.3265 Z-0.3667 I0.0062 J0.0108
G2 X25.4818 Y125.3157 Z-0.4 I0.0063 J-0.0108
G2 X25.463 Y125.3049 Z-0.4333 I-0.0125 J0.0
G2 Y125.3265 Z-0.4667 I0.0062 J0.0108
G2 X25.4818 Y125.3157 Z-0.5 I0.0063 J-0.0108
G2 X25.463 Y125.3049 Z-0.5333 I-0.0125 J0.0
G2 Y125.3265 Z-0.5667 I0.0062 J0.0108
G2 X25.4818 Y125.3157 Z-0.6 I0.0063 J-0.0108
G2 X25.463 Y125.3049 Z-0.6333 I-0.0125 J0.0
G2 Y125.3265 Z-0.6667 I0.0062 J0.0108
G2 X25.4818 Y125.3157 Z-0.7 I0.0063 J-0.0108
G2 X25.463 Y125.3049 Z-0.7333 I-0.0125 J0.0
G2 Y125.3265 Z-0.7667 I0.0062 J0.0108
G2 X25.4818 Y125.3157 Z-0.8 I0.0063 J-0.0108
G2 X25.463 Y125.3049 Z-0.8333 I-0.0125 J0.0
G2 Y125.3265 Z-0.8667 I0.0062 J0.0108
G2 X25.4818 Y125.3157 Z-0.9 I0.0063 J-0.0108
G2 X25.463 Y125.3049 Z-0.9333 I-0.0125 J0.0
G2 Y125.3265 Z-0.9667 I0.0062 J0.0108
G2 X25.4818 Y125.3157 Z-1.0 I0.0063 J-0.0108
G2 X25.463 Y125.3049 Z-1.0333 I-0.0125 J0.0
G2 Y125.3265 Z-1.0667 I0.0062 J0.0108
G2 X25.4818 Y125.3157 Z-1.1 I0.0063 J-0.0108
G2 X25.463 Y125.3049 Z-1.1333 I-0.0125 J0.0
G2 Y125.3265 Z-1.1667 I0.0062 J0.0108
G2 X25.4818 Y125.3157 Z-1.2 I0.0063 J-0.0108
G2 X25.463 Y125.3049 Z-1.2333 I-0.0125 J0.0
G2 Y125.3265 Z-1.2667 I0.0062 J0.0108
G2 X25.4818 Y125.3157 Z-1.3 I0.0063 J-0.0108
G2 X25.463 Y125.3049 Z-1.3333 I-0.0125 J0.0
G2 Y125.3265 Z-1.3667 I0.0062 J0.0108
G2 X25.4818 Y125.3157 Z-1.4 I0.0063 J-0.0108
G2 X25.463 Y125.3049 Z-1.4333 I-0.0125 J0.0
G2 Y125.3265 Z-1.4667 I0.0062 J0.0108
G2 X25.4818 Y125.3157 Z-1.5 I0.0063 J-0.0108
G2 X25.463 Y125.3049 Z-1.5333 I-0.0125 J0.0
G2 Y125.3265 Z-1.5667 I0.0062 J0.0108
G2 X25.4818 Y125.3157 Z-1.6 I0.0063 J-0.0108
G2 X25.463 Y125.3049 Z-1.6333 I-0.0125 J0.0
G2 Y125.3265 Z-1.6667 I0.0062 J0.0108
G2 X25.4818 Y125.3157 Z-1.7 I0.0063 J-0.0108
G2 X25.463 Y125.3049 Z-1.7333 I-0.0125 J0.0
G2 Y125.3265 Z-1.7667 I0.0062 J0.0108
G2 X25.4818 Y125.3157 Z-1.8 I0.0063 J-0.0108
G2 X25.463 Y125.3049 Z-1.8333 I-0.0125 J0.0
G2 Y125.3265 Z-1.8667 I0.0062 J0.0108
G2 X25.4818 Y125.3157 Z-1.9 I0.0063 J-0.0108
G2 X25.463 Y125.3049 Z-1.9333 I-0.0125 J0.0
G2 Y125.3265 Z-1.9667 I0.0062 J0.0108
G2 X25.4818 Y125.3157 Z-2.0 I0.0063 J-0.0108
G2 X25.463 Y125.3049 Z-2.0333 I-0.0125 J0.0
G2 Y125.3265 Z-2.0667 I0.0062 J0.0108
G2 X25.4818 Y125.3157 Z-2.1 I0.0063 J-0.0108
G2 X25.463 Y125.3049 Z-2.1333 I-0.0125 J0.0
G2 Y125.3265 Z-2.1667 I0.0062 J0.0108
G2 X25.4818 Y125.3157 Z-2.2 I0.0063 J-0.0108
G2 X25.463 Y125.3049 Z-2.2333 I-0.0125 J0.0
G2 Y125.3265 Z-2.2667 I0.0062 J0.0108
G2 X25.4818 Y125.3157 Z-2.3 I0.0063 J-0.0108
G2 X25.463 Y125.3049 Z-2.3333 I-0.0125 J0.0
G2 Y125.3265 Z-2.3667 I0.0062 J0.0108
G2 X25.4818 Y125.3157 Z-2.4 I0.0063 J-0.0108
G2 X25.463 Y125.3049 Z-2.4333 I-0.0125 J0.0
G2 Y125.3265 Z-2.4667 I0.0062 J0.0108
G2 X25.4818 Y125.3157 Z-2.5 I0.0063 J-0.0108
G2 X25.463 Y125.3049 Z-2.5333 I-0.0125 J0.0
G2 Y125.3265 Z-2.5667 I0.0062 J0.0108
G2 X25.4818 Y125.3157 Z-2.6 I0.0063 J-0.0108
G2 X25.463 Y125.3049 Z-2.6333 I-0.0125 J0.0
G2 Y125.3265 Z-2.6667 I0.0062 J0.0108
G2 X25.4818 Y125.3157 Z-2.7 I0.0063 J-0.0108
G2 X25.463 Y125.3049 Z-2.7333 I-0.0125 J0.0
G2 Y125.3265 Z-2.7667 I0.0062 J0.0108
G2 X25.4818 Y125.3157 Z-2.8 I0.0063 J-0.0108
G2 X25.463 Y125.3049 Z-2.8333 I-0.0125 J0.0
G2 Y125.3265 Z-2.8667 I0.0062 J0.0108
G2 X25.4818 Y125.3157 Z-2.9 I0.0063 J-0.0108
G2 X25.463 Y125.3049 Z-2.9333 I-0.0125 J0.0
G2 Y125.3265 Z-2.9667 I0.0062 J0.0108
G2 X25.4818 Y125.3157 Z-3.0 I0.0063 J-0.0108
G2 X25.463 Y125.3049 Z-3.0333 I-0.0125 J0.0
G2 Y125.3265 Z-3.0667 I0.0062 J0.0108
G2 X25.4818 Y125.3157 Z-3.1 I0.0063 J-0.0108
G2 X25.463 Y125.3049 Z-3.1333 I-0.0125 J0.0
G2 Y125.3265 Z-3.1667 I0.0062 J0.0108
G2 X25.4818 Y125.3157 Z-3.2 I0.0063 J-0.0108
G2 X25.463 Y125.3049 I-0.0125 J0.0
G2 Y125.3265 I0.0063 J0.0108
G2 X25.4818 Y125.3157 I0.0062 J-0.0108
G0 Z3.0
G0 X20.6556 Y110.0921
G1 F1000.0 Z0.0
G2 F2000.0 X20.6369 Y110.0813 Z-0.0333 I-0.0125 J0.0
G2 Y110.1029 Z-0.0667 I0.0062 J0.0108
G2 X20.6556 Y110.0921 Z-0.1 I0.0063 J-0.0108
G2 X20.6369 Y110.0813 Z-0.1333 I-0.0125 J0.0
G2 Y110.1029 Z-0.1667 I0.0062 J0.0108
G2 X20.6556 Y110.0921 Z-0.2 I0.0063 J-0.0108
G2 X20.6369 Y110.0813 Z-0.2333 I-0.0125 J0.0
G2 Y110.1029 Z-0.2667 I0.0062 J0.0108
G2 X20.6556 Y110.0921 Z-0.3 I0.0063 J-0.0108
G2 X20.6369 Y110.0813 Z-0.3333 I-0.0125 J0.0
G2 Y110.1029 Z-0.3667 I0.0062 J0.0108
G2 X20.6556 Y110.0921 Z-0.4 I0.0063 J-0.0108
G2 X20.6369 Y110.0813 Z-0.4333 I-0.0125 J0.0
G2 Y110.1029 Z-0.4667 I0.0062 J0.0108
G2 X20.6556 Y110.0921 Z-0.5 I0.0063 J-0.0108
G2 X20.6369 Y110.0813 Z-0.5333 I-0.0125 J0.0
G2 Y110.1029 Z-0.5667 I0.0062 J0.0108
G2 X20.6556 Y110.0921 Z-0.6 I0.0063 J-0.0108
G2 X20.6369 Y110.0813 Z-0.6333 I-0.0125 J0.0
G2 Y110.1029 Z-0.6667 I0.0062 J0.0108
G2 X20.6556 Y110.0921 Z-0.7 I0.0063 J-0.0108
G2 X20.6369 Y110.0813 Z-0.7333 I-0.0125 J0.0
G2 Y110.1029 Z-0.7667 I0.0062 J0.0108
G2 X20.6556 Y110.0921 Z-0.8 I0.0063 J-0.0108
G2 X20.6369 Y110.0813 Z-0.8333 I-0.0125 J0.0
G2 Y110.1029 Z-0.8667 I0.0062 J0.0108
G2 X20.6556 Y110.0921 Z-0.9 I0.0063 J-0.0108
G2 X20.6369 Y110.0813 Z-0.9333 I-0.0125 J0.0
G2 Y110.1029 Z-0.9667 I0.0062 J0.0108
G2 X20.6556 Y110.0921 Z-1.0 I0.0063 J-0.0108
G2 X20.6369 Y110.0813 Z-1.0333 I-0.0125 J0.0
G2 Y110.1029 Z-1.0667 I0.0062 J0.0108
G2 X20.6556 Y110.0921 Z-1.1 I0.0063 J-0.0108
G2 X20.6369 Y110.0813 Z-1.1333 I-0.0125 J0.0
G2 Y110.1029 Z-1.1667 I0.0062 J0.0108
G2 X20.6556 Y110.0921 Z-1.2 I0.0063 J-0.0108
G2 X20.6369 Y110.0813 Z-1.2333 I-0.0125 J0.0
G2 Y110.1029 Z-1.2667 I0.0062 J0.0108
G2 X20.6556 Y110.0921 Z-1.3 I0.0063 J-0.0108
G2 X20.6369 Y110.0813 Z-1.3333 I-0.0125 J0.0
G2 Y110.1029 Z-1.3667 I0.0062 J0.0108
G2 X20.6556 Y110.0921 Z-1.4 I0.0063 J-0.0108
G2 X20.6369 Y110.0813 Z-1.4333 I-0.0125 J0.0
G2 Y110.1029 Z-1.4667 I0.0062 J0.0108
G2 X20.6556 Y110.0921 Z-1.5 I0.0063 J-0.0108
G2 X20.6369 Y110.0813 Z-1.5333 I-0.0125 J0.0
G2 Y110.1029 Z-1.5667 I0.0062 J0.0108
G2 X20.6556 Y110.0921 Z-1.6 I0.0063 J-0.0108
G2 X20.6369 Y110.0813 Z-1.6333 I-0.0125 J0.0
G2 Y110.1029 Z-1.6667 I0.0062 J0.0108
G2 X20.6556 Y110.0921 Z-1.7 I0.0063 J-0.0108
G2 X20.6369 Y110.0813 Z-1.7333 I-0.0125 J0.0
G2 Y110.1029 Z-1.7667 I0.0062 J0.0108
G2 X20.6556 Y110.0921 Z-1.8 I0.0063 J-0.0108
G2 X20.6369 Y110.0813 Z-1.8333 I-0.0125 J0.0
G2 Y110.1029 Z-1.8667 I0.0062 J0.0108
G2 X20.6556 Y110.0921 Z-1.9 I0.0063 J-0.0108
G2 X20.6369 Y110.0813 Z-1.9333 I-0.0125 J0.0
G2 Y110.1029 Z-1.9667 I0.0062 J0.0108
G2 X20.6556 Y110.0921 Z-2.0 I0.0063 J-0.0108
G2 X20.6369 Y110.0813 Z-2.0333 I-0.0125 J0.0
G2 Y110.1029 Z-2.0667 I0.0062 J0.0108
G2 X20.6556 Y110.0921 Z-2.1 I0.0063 J-0.0108
G2 X20.6369 Y110.0813 Z-2.1333 I-0.0125 J0.0
G2 Y110.1029 Z-2.1667 I0.0062 J0.0108
G2 X20.6556 Y110.0921 Z-2.2 I0.0063 J-0.0108
G2 X20.6369 Y110.0813 Z-2.2333 I-0.0125 J0.0
G2 Y110.1029 Z-2.2667 I0.0062 J0.0108
G2 X20.6556 Y110.0921 Z-2.3 I0.0063 J-0.0108
G2 X20.6369 Y110.0813 Z-2.3333 I-0.0125 J0.0
G2 Y110.1029 Z-2.3667 I0.0062 J0.0108
G2 X20.6556 Y110.0921 Z-2.4 I0.0063 J-0.0108
G2 X20.6369 Y110.0813 Z-2.4333 I-0.0125 J0.0
G2 Y110.1029 Z-2.4667 I0.0062 J0.0108
G2 X20.6556 Y110.0921 Z-2.5 I0.0063 J-0.0108
G2 X20.6369 Y110.0813 Z-2.5333 I-0.0125 J0.0
G2 Y110.1029 Z-2.5667 I0.0062 J0.0108
G2 X20.6556 Y110.0921 Z-2.6 I0.0063 J-0.0108
G2 X20.6369 Y110.0813 Z-2.6333 I-0.0125 J0.0
G2 Y110.1029 Z-2.6667 I0.0062 J0.0108
G2 X20.6556 Y110.0921 Z-2.7 I0.0063 J-0.0108
G2 X20.6369 Y110.0813 Z-2.7333 I-0.0125 J0.0
G2 Y110.1029 Z-2.7667 I0.0062 J0.0108
G2 X20.6556 Y110.0921 Z-2.8 I0.0063 J-0.0108
G2 X20.6369 Y110.0813 Z-2.8333 I-0.0125 J0.0
G2 Y110.1029 Z-2.8667 I0.0062 J0.0108
G2 X20.6556 Y110.0921 Z-2.9 I0.0063 J-0.0108
G2 X20.6369 Y110.0813 Z-2.9333 I-0.0125 J0.0
G2 Y110.1029 Z-2.9667 I0.0062 J0.0108
G2 X20.6556 Y110.0921 Z-3.0 I0.0063 J-0.0108
G2 X20.6369 Y110.0813 Z-3.0333 I-0.0125 J0.0
G2 Y110.1029 Z-3.0667 I0.0062 J0.0108
G2 X20.6556 Y110.0921 Z-3.1 I0.0063 J-0.0108
G2 X20.6369 Y110.0813 Z-3.1333 I-0.0125 J0.0
G2 Y110.1029 Z-3.1667 I0.0062 J0.0108
G2 X20.6556 Y110.0921 Z-3.2 I0.0063 J-0.0108
G2 X20.6369 Y110.0813 I-0.0125 J0.0
G2 Y110.1029 I0.0063 J0.0108
G2 X20.6556 Y110.0921 I0.0062 J-0.0108
G0 Z3.0
G0 X20.6718 Y97.8369
G1 F1000.0 Z0.0
G2 F2000.0 X20.653 Y97.8261 Z-0.0333 I-0.0125 J0.0
G2 Y97.8477 Z-0.0667 I0.0062 J0.0108
G2 X20.6718 Y97.8369 Z-0.1 I0.0063 J-0.0108
G2 X20.653 Y97.8261 Z-0.1333 I-0.0125 J0.0
G2 Y97.8477 Z-0.1667 I0.0062 J0.0108
G2 X20.6718 Y97.8369 Z-0.2 I0.0063 J-0.0108
G2 X20.653 Y97.8261 Z-0.2333 I-0.0125 J0.0
G2 Y97.8477 Z-0.2667 I0.0062 J0.0108
G2 X20.6718 Y97.8369 Z-0.3 I0.0063 J-0.0108
G2 X20.653 Y97.8261 Z-0.3333 I-0.0125 J0.0
G2 Y97.8477 Z-0.3667 I0.0062 J0.0108
G2 X20.6718 Y97.8369 Z-0.4 I0.0063 J-0.0108
G2 X20.653 Y97.8261 Z-0.4333 I-0.0125 J0.0
G2 Y97.8477 Z-0.4667 I0.0062 J0.0108
G2 X20.6718 Y97.8369 Z-0.5 I0.0063 J-0.0108
G2 X20.653 Y97.8261 Z-0.5333 I-0.0125 J0.0
G2 Y97.8477 Z-0.5667 I0.0062 J0.0108
G2 X20.6718 Y97.8369 Z-0.6 I0.0063 J-0.0108
G2 X20.653 Y97.8261 Z-0.6333 I-0.0125 J0.0
G2 Y97.8477 Z-0.6667 I0.0062 J0.0108
G2 X20.6718 Y97.8369 Z-0.7 I0.0063 J-0.0108
G2 X20.653 Y97.8261 Z-0.7333 I-0.0125 J0.0
G2 Y97.8477 Z-0.7667 I0.0062 J0.0108
G2 X20.6718 Y97.8369 Z-0.8 I0.0063 J-0.0108
G2 X20.653 Y97.8261 Z-0.8333 I-0.0125 J0.0
G2 Y97.8477 Z-0.8667 I0.0062 J0.0108
G2 X20.6718 Y97.8369 Z-0.9 I0.0063 J-0.0108
G2 X20.653 Y97.8261 Z-0.9333 I-0.0125 J0.0
G2 Y97.8477 Z-0.9667 I0.0062 J0.0108
G2 X20.6718 Y97.8369 Z-1.0 I0.0063 J-0.0108
G2 X20.653 Y97.8261 Z-1.0333 I-0.0125 J0.0
G2 Y97.8477 Z-1.0667 I0.0062 J0.0108
G2 X20.6718 Y97.8369 Z-1.1 I0.0063 J-0.0108
G2 X20.653 Y97.8261 Z-1.1333 I-0.0125 J0.0
G2 Y97.8477 Z-1.1667 I0.0062 J0.0108
G2 X20.6718 Y97.8369 Z-1.2 I0.0063 J-0.0108
G2 X20.653 Y97.8261 Z-1.2333 I-0.0125 J0.0
G2 Y97.8477 Z-1.2667 I0.0062 J0.0108
G2 X20.6718 Y97.8369 Z-1.3 I0.0063 J-0.0108
G2 X20.653 Y97.8261 Z-1.3333 I-0.0125 J0.0
G2 Y97.8477 Z-1.3667 I0.0062 J0.0108
G2 X20.6718 Y97.8369 Z-1.4 I0.0063 J-0.0108
G2 X20.653 Y97.8261 Z-1.4333 I-0.0125 J0.0
G2 Y97.8477 Z-1.4667 I0.0062 J0.0108
G2 X20.6718 Y97.8369 Z-1.5 I0.0063 J-0.0108
G2 X20.653 Y97.8261 Z-1.5333 I-0.0125 J0.0
G2 Y97.8477 Z-1.5667 I0.0062 J0.0108
G2 X20.6718 Y97.8369 Z-1.6 I0.0063 J-0.0108
G2 X20.653 Y97.8261 Z-1.6333 I-0.0125 J0.0
G2 Y97.8477 Z-1.6667 I0.0062 J0.0108
G2 X20.6718 Y97.8369 Z-1.7 I0.0063 J-0.0108
G2 X20.653 Y97.8261 Z-1.7333 I-0.0125 J0.0
G2 Y97.8477 Z-1.7667 I0.0062 J0.0108
G2 X20.6718 Y97.8369 Z-1.8 I0.0063 J-0.0108
G2 X20.653 Y97.8261 Z-1.8333 I-0.0125 J0.0
G2 Y97.8477 Z-1.8667 I0.0062 J0.0108
G2 X20.6718 Y97.8369 Z-1.9 I0.0063 J-0.0108
G2 X20.653 Y97.8261 Z-1.9333 I-0.0125 J0.0
G2 Y97.8477 Z-1.9667 I0.0062 J0.0108
G2 X20.6718 Y97.8369 Z-2.0 I0.0063 J-0.0108
G2 X20.653 Y97.8261 Z-2.0333 I-0.0125 J0.0
G2 Y97.8477 Z-2.0667 I0.0062 J0.0108
G2 X20.6718 Y97.8369 Z-2.1 I0.0063 J-0.0108
G2 X20.653 Y97.8261 Z-2.1333 I-0.0125 J0.0
G2 Y97.8477 Z-2.1667 I0.0062 J0.0108
G2 X20.6718 Y97.8369 Z-2.2 I0.0063 J-0.0108
G2 X20.653 Y97.8261 Z-2.2333 I-0.0125 J0.0
G2 Y97.8477 Z-2.2667 I0.0062 J0.0108
G2 X20.6718 Y97.8369 Z-2.3 I0.0063 J-0.0108
G2 X20.653 Y97.8261 Z-2.3333 I-0.0125 J0.0
G2 Y97.8477 Z-2.3667 I0.0062 J0.0108
G2 X20.6718 Y97.8369 Z-2.4 I0.0063 J-0.0108
G2 X20.653 Y97.8261 Z-2.4333 I-0.0125 J0.0
G2 Y97.8477 Z-2.4667 I0.0062 J0.0108
G2 X20.6718 Y97.8369 Z-2.5 I0.0063 J-0.0108
G2 X20.653 Y97.8261 Z-2.5333 I-0.0125 J0.0
G2 Y97.8477 Z-2.5667 I0.0062 J0.0108
G2 X20.6718 Y97.8369 Z-2.6 I0.0063 J-0.0108
G2 X20.653 Y97.8261 Z-2.6333 I-0.0125 J0.0
G2 Y97.8477 Z-2.6667 I0.0062 J0.0108
G2 X20.6718 Y97.8369 Z-2.7 I0.0063 J-0.0108
G2 X20.653 Y97.8261 Z-2.7333 I-0.0125 J0.0
G2 Y97.8477 Z-2.7667 I0.0062 J0.0108
G2 X20.6718 Y97.8369 Z-2.8 I0.0063 J-0.0108
G2 X20.653 Y97.8261 Z-2.8333 I-0.0125 J0.0
G2 Y97.8477 Z-2.8667 I0.0062 J0.0108
G2 X20.6718 Y97.8369 Z-2.9 I0.0063 J-0.0108
G2 X20.653 Y97.8261 Z-2.9333 I-0.0125 J0.0
G2 Y97.8477 Z-2.9667 I0.0062 J0.0108
G2 X20.6718 Y97.8369 Z-3.0 I0.0063 J-0.0108
G2 X20.653 Y97.8261 Z-3.0333 I-0.0125 J0.0
G2 Y97.8477 Z-3.0667 I0.0062 J0.0108
G2 X20.6718 Y97.8369 Z-3.1 I0.0063 J-0.0108
G2 X20.653 Y97.8261 Z-3.1333 I-0.0125 J0.0
G2 Y97.8477 Z-3.1667 I0.0062 J0.0108
G2 X20.6718 Y97.8369 Z-3.2 I0.0063 J-0.0108
G2 X20.653 Y97.8261 I-0.0125 J0.0
G2 Y97.8477 I0.0063 J0.0108
G2 X20.6718 Y97.8369 I0.0062 J-0.0108
G0 Z3.0
G0 X21.5078 Y87.1754
G1 F1000.0 Z0.0
G2 F2000.0 X21.4891 Y87.1646 Z-0.0333 I-0.0125 J0.0
G2 Y87.1863 Z-0.0667 I0.0062 J0.0108
G2 X21.5078 Y87.1754 Z-0.1 I0.0063 J-0.0108
G2 X21.4891 Y87.1646 Z-0.1333 I-0.0125 J0.0
G2 Y87.1863 Z-0.1667 I0.0062 J0.0108
G2 X21.5078 Y87.1754 Z-0.2 I0.0063 J-0.0108
G2 X21.4891 Y87.1646 Z-0.2333 I-0.0125 J0.0
G2 Y87.1863 Z-0.2667 I0.0062 J0.0108
G2 X21.5078 Y87.1754 Z-0.3 I0.0063 J-0.0108
G2 X21.4891 Y87.1646 Z-0.3333 I-0.0125 J0.0
G2 Y87.1863 Z-0.3667 I0.0062 J0.0108
G2 X21.5078 Y87.1754 Z-0.4 I0.0063 J-0.0108
G2 X21.4891 Y87.1646 Z-0.4333 I-0.0125 J0.0
G2 Y87.1863 Z-0.4667 I0.0062 J0.0108
G2 X21.5078 Y87.1754 Z-0.5 I0.0063 J-0.0108
G2 X21.4891 Y87.1646 Z-0.5333 I-0.0125 J0.0
G2 Y87.1863 Z-0.5667 I0.0062 J0.0108
G2 X21.5078 Y87.1754 Z-0.6 I0.0063 J-0.0108
G2 X21.4891 Y87.1646 Z-0.6333 I-0.0125 J0.0
G2 Y87.1863 Z-0.6667 I0.0062 J0.0108
G2 X21.5078 Y87.1754 Z-0.7 I0.0063 J-0.0108
G2 X21.4891 Y87.1646 Z-0.7333 I-0.0125 J0.0
G2 Y87.1863 Z-0.7667 I0.0062 J0.0108
G2 X21.5078 Y87.1754 Z-0.8 I0.0063 J-0.0108
G2 X21.4891 Y87.1646 Z-0.8333 I-0.0125 J0.0
G2 Y87.1863 Z-0.8667 I0.0062 J0.0108
G2 X21.5078 Y87.1754 Z-0.9 I0.0063 J-0.0108
G2 X21.4891 Y87.1646 Z-0.9333 I-0.0125 J0.0
G2 Y87.1863 Z-0.9667 I0.0062 J0.0108
G2 X21.5078 Y87.1754 Z-1.0 I0.0063 J-0.0108
G2 X21.4891 Y87.1646 Z-1.0333 I-0.0125 J0.0
G2 Y87.1863 Z-1.0667 I0.0062 J0.0108
G2 X21.5078 Y87.1754 Z-1.1 I0.0063 J-0.0108
G2 X21.4891 Y87.1646 Z-1.1333 I-0.0125 J0.0
G2 Y87.1863 Z-1.1667 I0.0062 J0.0108
G2 X21.5078 Y87.1754 Z-1.2 I0.0063 J-0.0108
G2 X21.4891 Y87.1646 Z-1.2333 I-0.0125 J0.0
G2 Y87.1863 Z-1.2667 I0.0062 J0.0108
G2 X21.5078 Y87.1754 Z-1.3 I0.0063 J-0.0108
G2 X21.4891 Y87.1646 Z-1.3333 I-0.0125 J0.0
G2 Y87.1863 Z-1.3667 I0.0062 J0.0108
G2 X21.5078 Y87.1754 Z-1.4 I0.0063 J-0.0108
G2 X21.4891 Y87.1646 Z-1.4333 I-0.0125 J0.0
G2 Y87.1863 Z-1.4667 I0.0062 J0.0108
G2 X21.5078 Y87.1754 Z-1.5 I0.0063 J-0.0108
G2 X21.4891 Y87.1646 Z-1.5333 I-0.0125 J0.0
G2 Y87.1863 Z-1.5667 I0.0062 J0.0108
G2 X21.5078 Y87.1754 Z-1.6 I0.0063 J-0.0108
G2 X21.4891 Y87.1646 Z-1.6333 I-0.0125 J0.0
G2 Y87.1863 Z-1.6667 I0.0062 J0.0108
G2 X21.5078 Y87.1754 Z-1.7 I0.0063 J-0.0108
G2 X21.4891 Y87.1646 Z-1.7333 I-0.0125 J0.0
G2 Y87.1863 Z-1.7667 I0.0062 J0.0108
G2 X21.5078 Y87.1754 Z-1.8 I0.0063 J-0.0108
G2 X21.4891 Y87.1646 Z-1.8333 I-0.0125 J0.0
G2 Y87.1863 Z-1.8667 I0.0062 J0.0108
G2 X21.5078 Y87.1754 Z-1.9 I0.0063 J-0.0108
G2 X21.4891 Y87.1646 Z-1.9333 I-0.0125 J0.0
G2 Y87.1863 Z-1.9667 I0.0062 J0.0108
G2 X21.5078 Y87.1754 Z-2.0 I0.0063 J-0.0108
G2 X21.4891 Y87.1646 Z-2.0333 I-0.0125 J0.0
G2 Y87.1863 Z-2.0667 I0.0062 J0.0108
G2 X21.5078 Y87.1754 Z-2.1 I0.0063 J-0.0108
G2 X21.4891 Y87.1646 Z-2.1333 I-0.0125 J0.0
G2 Y87.1863 Z-2.1667 I0.0062 J0.0108
G2 X21.5078 Y87.1754 Z-2.2 I0.0063 J-0.0108
G2 X21.4891 Y87.1646 Z-2.2333 I-0.0125 J0.0
G2 Y87.1863 Z-2.2667 I0.0062 J0.0108
G2 X21.5078 Y87.1754 Z-2.3 I0.0063 J-0.0108
G2 X21.4891 Y87.1646 Z-2.3333 I-0.0125 J0.0
G2 Y87.1863 Z-2.3667 I0.0062 J0.0108
G2 X21.5078 Y87.1754 Z-2.4 I0.0063 J-0.0108
G2 X21.4891 Y87.1646 Z-2.4333 I-0.0125 J0.0
G2 Y87.1863 Z-2.4667 I0.0062 J0.0108
G2 X21.5078 Y87.1754 Z-2.5 I0.0063 J-0.0108
G2 X21.4891 Y87.1646 Z-2.5333 I-0.0125 J0.0
G2 Y87.1863 Z-2.5667 I0.0062 J0.0108
G2 X21.5078 Y87.1754 Z-2.6 I0.0063 J-0.0108
G2 X21.4891 Y87.1646 Z-2.6333 I-0.0125 J0.0
G2 Y87.1863 Z-2.6667 I0.0062 J0.0108
G2 X21.5078 Y87.1754 Z-2.7 I0.0063 J-0.0108
G2 X21.4891 Y87.1646 Z-2.7333 I-0.0125 J0.0
G2 Y87.1863 Z-2.7667 I0.0062 J0.0108
G2 X21.5078 Y87.1754 Z-2.8 I0.0063 J-0.0108
G2 X21.4891 Y87.1646 Z-2.8333 I-0.0125 J0.0
G2 Y87.1863 Z-2.8667 I0.0062 J0.0108
G2 X21.5078 Y87.1754 Z-2.9 I0.0063 J-0.0108
G2 X21.4891 Y87.1646 Z-2.9333 I-0.0125 J0.0
G2 Y87.1863 Z-2.9667 I0.0062 J0.0108
G2 X21.5078 Y87.1754 Z-3.0 I0.0063 J-0.0108
G2 X21.4891 Y87.1646 Z-3.0333 I-0.0125 J0.0
G2 Y87.1863 Z-3.0667 I0.0062 J0.0108
G2 X21.5078 Y87.1754 Z-3.1 I0.0063 J-0.0108
G2 X21.4891 Y87.1646 Z-3.1333 I-0.0125 J0.0
G2 Y87.1863 Z-3.1667 I0.0062 J0.0108
G2 X21.5078 Y87.1754 Z-3.2 I0.0063 J-0.0108
G2 X21.4891 Y87.1646 I-0.0125 J0.0
G2 Y87.1863 I0.0063 J0.0108
G2 X21.5078 Y87.1754 I0.0062 J-0.0108
G0 Z3.0
G0 X20.6707 Y76.1284
G1 F1000.0 Z0.0
G2 F2000.0 X20.6519 Y76.1176 Z-0.0333 I-0.0125 J0.0
G2 Y76.1392 Z-0.0667 I0.0062 J0.0108
G2 X20.6707 Y76.1284 Z-0.1 I0.0063 J-0.0108
G2 X20.6519 Y76.1176 Z-0.1333 I-0.0125 J0.0
G2 Y76.1392 Z-0.1667 I0.0062 J0.0108
G2 X20.6707 Y76.1284 Z-0.2 I0.0063 J-0.0108
G2 X20.6519 Y76.1176 Z-0.2333 I-0.0125 J0.0
G2 Y76.1392 Z-0.2667 I0.0062 J0.0108
G2 X20.6707 Y76.1284 Z-0.3 I0.0063 J-0.0108
G2 X20.6519 Y76.1176 Z-0.3333 I-0.0125 J0.0
G2 Y76.1392 Z-0.3667 I0.0062 J0.0108
G2 X20.6707 Y76.1284 Z-0.4 I0.0063 J-0.0108
G2 X20.6519 Y76.1176 Z-0.4333 I-0.0125 J0.0
G2 Y76.1392 Z-0.4667 I0.0062 J0.0108
G2 X20.6707 Y76.1284 Z-0.5 I0.0063 J-0.0108
G2 X20.6519 Y76.1176 Z-0.5333 I-0.0125 J0.0
G2 Y76.1392 Z-0.5667 I0.0062 J0.0108
G2 X20.6707 Y76.1284 Z-0.6 I0.0063 J-0.0108
G2 X20.6519 Y76.1176 Z-0.6333 I-0.0125 J0.0
G2 Y76.1392 Z-0.6667 I0.0062 J0.0108
G2 X20.6707 Y76.1284 Z-0.7 I0.0063 J-0.0108
G2 X20.6519 Y76.1176 Z-0.7333 I-0.0125 J0.0
G2 Y76.1392 Z-0.7667 I0.0062 J0.0108
G2 X20.6707 Y76.1284 Z-0.8 I0.0063 J-0.0108
G2 X20.6519 Y76.1176 Z-0.8333 I-0.0125 J0.0
G2 Y76.1392 Z-0.8667 I0.0062 J0.0108
G2 X20.6707 Y76.1284 Z-0.9 I0.0063 J-0.0108
G2 X20.6519 Y76.1176 Z-0.9333 I-0.0125 J0.0
G2 Y76.1392 Z-0.9667 I0.0062 J0.0108
G2 X20.6707 Y76.1284 Z-1.0 I0.0063 J-0.0108
G2 X20.6519 Y76.1176 Z-1.0333 I-0.0125 J0.0
G2 Y76.1392 Z-1.0667 I0.0062 J0.0108
G2 X20.6707 Y76.1284 Z-1.1 I0.0063 J-0.0108
G2 X20.6519 Y76.1176 Z-1.1333 I-0.0125 J0.0
G2 Y76.1392 Z-1.1667 I0.0062 J0.0108
G2 X20.6707 Y76.1284 Z-1.2 I0.0063 J-0.0108
G2 X20.6519 Y76.1176 Z-1.2333 I-0.0125 J0.0
G2 Y76.1392 Z-1.2667 I0.0062 J0.0108
G2 X20.6707 Y76.1284 Z-1.3 I0.0063 J-0.0108
G2 X20.6519 Y76.1176 Z-1.3333 I-0.0125 J0.0
G2 Y76.1392 Z-1.3667 I0.0062 J0.0108
G2 X20.6707 Y76.1284 Z-1.4 I0.0063 J-0.0108
G2 X20.6519 Y76.1176 Z-1.4333 I-0.0125 J0.0
G2 Y76.1392 Z-1.4667 I0.0062 J0.0108
G2 X20.6707 Y76.1284 Z-1.5 I0.0063 J-0.0108
G2 X20.6519 Y76.1176 Z-1.5333 I-0.0125 J0.0
G2 Y76.1392 Z-1.5667 I0.0062 J0.0108
G2 X20.6707 Y76.1284 Z-1.6 I0.0063 J-0.0108
G2 X20.6519 Y76.1176 Z-1.6333 I-0.0125 J0.0
G2 Y76.1392 Z-1.6667 I0.0062 J0.0108
G2 X20.6707 Y76.1284 Z-1.7 I0.0063 J-0.0108
G2 X20.6519 Y76.1176 Z-1.7333 I-0.0125 J0.0
G2 Y76.1392 Z-1.7667 I0.0062 J0.0108
G2 X20.6707 Y76.1284 Z-1.8 I0.0063 J-0.0108
G2 X20.6519 Y76.1176 Z-1.8333 I-0.0125 J0.0
G2 Y76.1392 Z-1.8667 I0.0062 J0.0108
G2 X20.6707 Y76.1284 Z-1.9 I0.0063 J-0.0108
G2 X20.6519 Y76.1176 Z-1.9333 I-0.0125 J0.0
G2 Y76.1392 Z-1.9667 I0.0062 J0.0108
G2 X20.6707 Y76.1284 Z-2.0 I0.0063 J-0.0108
G2 X20.6519 Y76.1176 Z-2.0333 I-0.0125 J0.0
G2 Y76.1392 Z-2.0667 I0.0062 J0.0108
G2 X20.6707 Y76.1284 Z-2.1 I0.0063 J-0.0108
G2 X20.6519 Y76.1176 Z-2.1333 I-0.0125 J0.0
G2 Y76.1392 Z-2.1667 I0.0062 J0.0108
G2 X20.6707 Y76.1284 Z-2.2 I0.0063 J-0.0108
G2 X20.6519 Y76.1176 Z-2.2333 I-0.0125 J0.0
G2 Y76.1392 Z-2.2667 I0.0062 J0.0108
G2 X20.6707 Y76.1284 Z-2.3 I0.0063 J-0.0108
G2 X20.6519 Y76.1176 Z-2.3333 I-0.0125 J0.0
G2 Y76.1392 Z-2.3667 I0.0062 J0.0108
G2 X20.6707 Y76.1284 Z-2.4 I0.0063 J-0.0108
G2 X20.6519 Y76.1176 Z-2.4333 I-0.0125 J0.0
G2 Y76.1392 Z-2.4667 I0.0062 J0.0108
G2 X20.6707 Y76.1284 Z-2.5 I0.0063 J-0.0108
G2 X20.6519 Y76.1176 Z-2.5333 I-0.0125 J0.0
G2 Y76.1392 Z-2.5667 I0.0062 J0.0108
G2 X20.6707 Y76.1284 Z-2.6 I0.0063 J-0.0108
G2 X20.6519 Y76.1176 Z-2.6333 I-0.0125 J0.0
G2 Y76.1392 Z-2.6667 I0.0062 J0.0108
G2 X20.6707 Y76.1284 Z-2.7 I0.0063 J-0.0108
G2 X20.6519 Y76.1176 Z-2.7333 I-0.0125 J0.0
G2 Y76.1392 Z-2.7667 I0.0062 J0.0108
G2 X20.6707 Y76.1284 Z-2.8 I0.0063 J-0.0108
G2 X20.6519 Y76.1176 Z-2.8333 I-0.0125 J0.0
G2 Y76.1392 Z-2.8667 I0.0062 J0.0108
G2 X20.6707 Y76.1284 Z-2.9 I0.0063 J-0.0108
G2 X20.6519 Y76.1176 Z-2.9333 I-0.0125 J0.0
G2 Y76.1392 Z-2.9667 I0.0062 J0.0108
G2 X20.6707 Y76.1284 Z-3.0 I0.0063 J-0.0108
G2 X20.6519 Y76.1176 Z-3.0333 I-0.0125 J0.0
G2 Y76.1392 Z-3.0667 I0.0062 J0.0108
G2 X20.6707 Y76.1284 Z-3.1 I0.0063 J-0.0108
G2 X20.6519 Y76.1176 Z-3.1333 I-0.0125 J0.0
G2 Y76.1392 Z-3.1667 I0.0062 J0.0108
G2 X20.6707 Y76.1284 Z-3.2 I0.0063 J-0.0108
G2 X20.6519 Y76.1176 I-0.0125 J0.0
G2 Y76.1392 I0.0063 J0.0108
G2 X20.6707 Y76.1284 I0.0062 J-0.0108
G0 Z3.0
G0 X27.7361 Y62.1749
G1 F1000.0 Z0.0
G2 F2000.0 X27.7174 Y62.164 Z-0.0333 I-0.0125 J0.0
G2 Y62.1857 Z-0.0667 I0.0063 J0.0108
G2 X27.7361 Y62.1749 Z-0.1 I0.0062 J-0.0108
G2 X27.7174 Y62.164 Z-0.1333 I-0.0125 J0.0
G2 Y62.1857 Z-0.1667 I0.0063 J0.0108
G2 X27.7361 Y62.1749 Z-0.2 I0.0062 J-0.0108
G2 X27.7174 Y62.164 Z-0.2333 I-0.0125 J0.0
G2 Y62.1857 Z-0.2667 I0.0063 J0.0108
G2 X27.7361 Y62.1749 Z-0.3 I0.0062 J-0.0108
G2 X27.7174 Y62.164 Z-0.3333 I-0.0125 J0.0
G2 Y62.1857 Z-0.3667 I0.0063 J0.0108
G2 X27.7361 Y62.1749 Z-0.4 I0.0062 J-0.0108
G2 X27.7174 Y62.164 Z-0.4333 I-0.0125 J0.0
G2 Y62.1857 Z-0.4667 I0.0063 J0.0108
G2 X27.7361 Y62.1749 Z-0.5 I0.0062 J-0.0108
G2 X27.7174 Y62.164 Z-0.5333 I-0.0125 J0.0
G2 Y62.1857 Z-0.5667 I0.0063 J0.0108
G2 X27.7361 Y62.1749 Z-0.6 I0.0062 J-0.0108
G2 X27.7174 Y62.164 Z-0.6333 I-0.0125 J0.0
G2 Y62.1857 Z-0.6667 I0.0063 J0.0108
G2 X27.7361 Y62.1749 Z-0.7 I0.0062 J-0.0108
G2 X27.7174 Y62.164 Z-0.7333 I-0.0125 J0.0
G2 Y62.1857 Z-0.7667 I0.0063 J0.0108
G2 X27.7361 Y62.1749 Z-0.8 I0.0062 J-0.0108
G2 X27.7174 Y62.164 Z-0.8333 I-0.0125 J0.0
G2 Y62.1857 Z-0.8667 I0.0063 J0.0108
G2 X27.7361 Y62.1749 Z-0.9 I0.0062 J-0.0108
G2 X27.7174 Y62.164 Z-0.9333 I-0.0125 J0.0
G2 Y62.1857 Z-0.9667 I0.0063 J0.0108
G2 X27.7361 Y62.1749 Z-1.0 I0.0062 J-0.0108
G2 X27.7174 Y62.164 Z-1.0333 I-0.0125 J0.0
G2 Y62.1857 Z-1.0667 I0.0063 J0.0108
G2 X27.7361 Y62.1749 Z-1.1 I0.0062 J-0.0108
G2 X27.7174 Y62.164 Z-1.1333 I-0.0125 J0.0
G2 Y62.1857 Z-1.1667 I0.0063 J0.0108
G2 X27.7361 Y62.1749 Z-1.2 I0.0062 J-0.0108
G2 X27.7174 Y62.164 Z-1.2333 I-0.0125 J0.0
G2 Y62.1857 Z-1.2667 I0.0063 J0.0108
G2 X27.7361 Y62.1749 Z-1.3 I0.0062 J-0.0108
G2 X27.7174 Y62.164 Z-1.3333 I-0.0125 J0.0
G2 Y62.1857 Z-1.3667 I0.0063 J0.0108
G2 X27.7361 Y62.1749 Z-1.4 I0.0062 J-0.0108
G2 X27.7174 Y62.164 Z-1.4333 I-0.0125 J0.0
G2 Y62.1857 Z-1.4667 I0.0063 J0.0108
G2 X27.7361 Y62.1749 Z-1.5 I0.0062 J-0.0108
G2 X27.7174 Y62.164 Z-1.5333 I-0.0125 J0.0
G2 Y62.1857 Z-1.5667 I0.0063 J0.0108
G2 X27.7361 Y62.1749 Z-1.6 I0.0062 J-0.0108
G2 X27.7174 Y62.164 Z-1.6333 I-0.0125 J0.0
G2 Y62.1857 Z-1.6667 I0.0063 J0.0108
G2 X27.7361 Y62.1749 Z-1.7 I0.0062 J-0.0108
G2 X27.7174 Y62.164 Z-1.7333 I-0.0125 J0.0
G2 Y62.1857 Z-1.7667 I0.0063 J0.0108
G2 X27.7361 Y62.1749 Z-1.8 I0.0062 J-0.0108
G2 X27.7174 Y62.164 Z-1.8333 I-0.0125 J0.0
G2 Y62.1857 Z-1.8667 I0.0063 J0.0108
G2 X27.7361 Y62.1749 Z-1.9 I0.0062 J-0.0108
G2 X27.7174 Y62.164 Z-1.9333 I-0.0125 J0.0
G2 Y62.1857 Z-1.9667 I0.0063 J0.0108
G2 X27.7361 Y62.1749 Z-2.0 I0.0062 J-0.0108
G2 X27.7174 Y62.164 Z-2.0333 I-0.0125 J0.0
G2 Y62.1857 Z-2.0667 I0.0063 J0.0108
G2 X27.7361 Y62.1749 Z-2.1 I0.0062 J-0.0108
G2 X27.7174 Y62.164 Z-2.1333 I-0.0125 J0.0
G2 Y62.1857 Z-2.1667 I0.0063 J0.0108
G2 X27.7361 Y62.1749 Z-2.2 I0.0062 J-0.0108
G2 X27.7174 Y62.164 Z-2.2333 I-0.0125 J0.0
G2 Y62.1857 Z-2.2667 I0.0063 J0.0108
G2 X27.7361 Y62.1749 Z-2.3 I0.0062 J-0.0108
G2 X27.7174 Y62.164 Z-2.3333 I-0.0125 J0.0
G2 Y62.1857 Z-2.3667 I0.0063 J0.0108
G2 X27.7361 Y62.1749 Z-2.4 I0.0062 J-0.0108
G2 X27.7174 Y62.164 Z-2.4333 I-0.0125 J0.0
G2 Y62.1857 Z-2.4667 I0.0063 J0.0108
G2 X27.7361 Y62.1749 Z-2.5 I0.0062 J-0.0108
G2 X27.7174 Y62.164 Z-2.5333 I-0.0125 J0.0
G2 Y62.1857 Z-2.5667 I0.0063 J0.0108
G2 X27.7361 Y62.1749 Z-2.6 I0.0062 J-0.0108
G2 X27.7174 Y62.164 Z-2.6333 I-0.0125 J0.0
G2 Y62.1857 Z-2.6667 I0.0063 J0.0108
G2 X27.7361 Y62.1749 Z-2.7 I0.0062 J-0.0108
G2 X27.7174 Y62.164 Z-2.7333 I-0.0125 J0.0
G2 Y62.1857 Z-2.7667 I0.0063 J0.0108
G2 X27.7361 Y62.1749 Z-2.8 I0.0062 J-0.0108
G2 X27.7174 Y62.164 Z-2.8333 I-0.0125 J0.0
G2 Y62.1857 Z-2.8667 I0.0063 J0.0108
G2 X27.7361 Y62.1749 Z-2.9 I0.0062 J-0.0108
G2 X27.7174 Y62.164 Z-2.9333 I-0.0125 J0.0
G2 Y62.1857 Z-2.9667 I0.0063 J0.0108
G2 X27.7361 Y62.1749 Z-3.0 I0.0062 J-0.0108
G2 X27.7174 Y62.164 Z-3.0333 I-0.0125 J0.0
G2 Y62.1857 Z-3.0667 I0.0063 J0.0108
G2 X27.7361 Y62.1749 Z-3.1 I0.0062 J-0.0108
G2 X27.7174 Y62.164 Z-3.1333 I-0.0125 J0.0
G2 Y62.1857 Z-3.1667 I0.0063 J0.0108
G2 X27.7361 Y62.1749 Z-3.2 I0.0062 J-0.0108
G2 X27.7174 Y62.164 I-0.0125 J0.0
G2 Y62.1857 I0.0063 J0.0108
G2 X27.7361 Y62.1749 I0.0062 J-0.0108
G0 Z3.0
G0 Y44.8544
G1 F1000.0 Z0.0
G2 F2000.0 X27.7174 Y44.8436 Z-0.0333 I-0.0125 J0.0
G2 Y44.8653 Z-0.0667 I0.0063 J0.0108
G2 X27.7361 Y44.8544 Z-0.1 I0.0062 J-0.0108
G2 X27.7174 Y44.8436 Z-0.1333 I-0.0125 J0.0
G2 Y44.8653 Z-0.1667 I0.0063 J0.0108
G2 X27.7361 Y44.8544 Z-0.2 I0.0062 J-0.0108
G2 X27.7174 Y44.8436 Z-0.2333 I-0.0125 J0.0
G2 Y44.8653 Z-0.2667 I0.0063 J0.0108
G2 X27.7361 Y44.8544 Z-0.3 I0.0062 J-0.0108
G2 X27.7174 Y44.8436 Z-0.3333 I-0.0125 J0.0
G2 Y44.8653 Z-0.3667 I0.0063 J0.0108
G2 X27.7361 Y44.8544 Z-0.4 I0.0062 J-0.0108
G2 X27.7174 Y44.8436 Z-0.4333 I-0.0125 J0.0
G2 Y44.8653 Z-0.4667 I0.0063 J0.0108
G2 X27.7361 Y44.8544 Z-0.5 I0.0062 J-0.0108
G2 X27.7174 Y44.8436 Z-0.5333 I-0.0125 J0.0
G2 Y44.8653 Z-0.5667 I0.0063 J0.0108
G2 X27.7361 Y44.8544 Z-0.6 I0.0062 J-0.0108
G2 X27.7174 Y44.8436 Z-0.6333 I-0.0125 J0.0
G2 Y44.8653 Z-0.6667 I0.0063 J0.0108
G2 X27.7361 Y44.8544 Z-0.7 I0.0062 J-0.0108
G2 X27.7174 Y44.8436 Z-0.7333 I-0.0125 J0.0
G2 Y44.8653 Z-0.7667 I0.0063 J0.0108
G2 X27.7361 Y44.8544 Z-0.8 I0.0062 J-0.0108
G2 X27.7174 Y44.8436 Z-0.8333 I-0.0125 J0.0
G2 Y44.8653 Z-0.8667 I0.0063 J0.0108
G2 X27.7361 Y44.8544 Z-0.9 I0.0062 J-0.0108
G2 X27.7174 Y44.8436 Z-0.9333 I-0.0125 J0.0
G2 Y44.8653 Z-0.9667 I0.0063 J0.0108
G2 X27.7361 Y44.8544 Z-1.0 I0.0062 J-0.0108
G2 X27.7174 Y44.8436 Z-1.0333 I-0.0125 J0.0
G2 Y44.8653 Z-1.0667 I0.0063 J0.0108
G2 X27.7361 Y44.8544 Z-1.1 I0.0062 J-0.0108
G2 X27.7174 Y44.8436 Z-1.1333 I-0.0125 J0.0
G2 Y44.8653 Z-1.1667 I0.0063 J0.0108
G2 X27.7361 Y44.8544 Z-1.2 I0.0062 J-0.0108
G2 X27.7174 Y44.8436 Z-1.2333 I-0.0125 J0.0
G2 Y44.8653 Z-1.2667 I0.0063 J0.0108
G2 X27.7361 Y44.8544 Z-1.3 I0.0062 J-0.0108
G2 X27.7174 Y44.8436 Z-1.3333 I-0.0125 J0.0
G2 Y44.8653 Z-1.3667 I0.0063 J0.0108
G2 X27.7361 Y44.8544 Z-1.4 I0.0062 J-0.0108
G2 X27.7174 Y44.8436 Z-1.4333 I-0.0125 J0.0
G2 Y44.8653 Z-1.4667 I0.0063 J0.0108
G2 X27.7361 Y44.8544 Z-1.5 I0.0062 J-0.0108
G2 X27.7174 Y44.8436 Z-1.5333 I-0.0125 J0.0
G2 Y44.8653 Z-1.5667 I0.0063 J0.0108
G2 X27.7361 Y44.8544 Z-1.6 I0.0062 J-0.0108
G2 X27.7174 Y44.8436 Z-1.6333 I-0.0125 J0.0
G2 Y44.8653 Z-1.6667 I0.0063 J0.0108
G2 X27.7361 Y44.8544 Z-1.7 I0.0062 J-0.0108
G2 X27.7174 Y44.8436 Z-1.7333 I-0.0125 J0.0
G2 Y44.8653 Z-1.7667 I0.0063 J0.0108
G2 X27.7361 Y44.8544 Z-1.8 I0.0062 J-0.0108
G2 X27.7174 Y44.8436 Z-1.8333 I-0.0125 J0.0
G2 Y44.8653 Z-1.8667 I0.0063 J0.0108
G2 X27.7361 Y44.8544 Z-1.9 I0.0062 J-0.0108
G2 X27.7174 Y44.8436 Z-1.9333 I-0.0125 J0.0
G2 Y44.8653 Z-1.9667 I0.0063 J0.0108
G2 X27.7361 Y44.8544 Z-2.0 I0.0062 J-0.0108
G2 X27.7174 Y44.8436 Z-2.0333 I-0.0125 J0.0
G2 Y44.8653 Z-2.0667 I0.0063 J0.0108
G2 X27.7361 Y44.8544 Z-2.1 I0.0062 J-0.0108
G2 X27.7174 Y44.8436 Z-2.1333 I-0.0125 J0.0
G2 Y44.8653 Z-2.1667 I0.0063 J0.0108
G2 X27.7361 Y44.8544 Z-2.2 I0.0062 J-0.0108
G2 X27.7174 Y44.8436 Z-2.2333 I-0.0125 J0.0
G2 Y44.8653 Z-2.2667 I0.0063 J0.0108
G2 X27.7361 Y44.8544 Z-2.3 I0.0062 J-0.0108
G2 X27.7174 Y44.8436 Z-2.3333 I-0.0125 J0.0
G2 Y44.8653 Z-2.3667 I0.0063 J0.0108
G2 X27.7361 Y44.8544 Z-2.4 I0.0062 J-0.0108
G2 X27.7174 Y44.8436 Z-2.4333 I-0.0125 J0.0
G2 Y44.8653 Z-2.4667 I0.0063 J0.0108
G2 X27.7361 Y44.8544 Z-2.5 I0.0062 J-0.0108
G2 X27.7174 Y44.8436 Z-2.5333 I-0.0125 J0.0
G2 Y44.8653 Z-2.5667 I0.0063 J0.0108
G2 X27.7361 Y44.8544 Z-2.6 I0.0062 J-0.0108
G2 X27.7174 Y44.8436 Z-2.6333 I-0.0125 J0.0
G2 Y44.8653 Z-2.6667 I0.0063 J0.0108
G2 X27.7361 Y44.8544 Z-2.7 I0.0062 J-0.0108
G2 X27.7174 Y44.8436 Z-2.7333 I-0.0125 J0.0
G2 Y44.8653 Z-2.7667 I0.0063 J0.0108
G2 X27.7361 Y44.8544 Z-2.8 I0.0062 J-0.0108
G2 X27.7174 Y44.8436 Z-2.8333 I-0.0125 J0.0
G2 Y44.8653 Z-2.8667 I0.0063 J0.0108
G2 X27.7361 Y44.8544 Z-2.9 I0.0062 J-0.0108
G2 X27.7174 Y44.8436 Z-2.9333 I-0.0125 J0.0
G2 Y44.8653 Z-2.9667 I0.0063 J0.0108
G2 X27.7361 Y44.8544 Z-3.0 I0.0062 J-0.0108
G2 X27.7174 Y44.8436 Z-3.0333 I-0.0125 J0.0
G2 Y44.8653 Z-3.0667 I0.0063 J0.0108
G2 X27.7361 Y44.8544 Z-3.1 I0.0062 J-0.0108
G2 X27.7174 Y44.8436 Z-3.1333 I-0.0125 J0.0
G2 Y44.8653 Z-3.1667 I0.0063 J0.0108
G2 X27.7361 Y44.8544 Z-3.2 I0.0062 J-0.0108
G2 X27.7174 Y44.8436 I-0.0125 J0.0
G2 Y44.8653 I0.0063 J0.0108
G2 X27.7361 Y44.8544 I0.0062 J-0.0108
G0 Z3.0
G0 X20.6615 Y30.8924
G1 F1000.0 Z0.0
G2 F2000.0 X20.6427 Y30.8816 Z-0.0333 I-0.0125 J0.0
G2 Y30.9033 Z-0.0667 I0.0062 J0.0108
G2 X20.6615 Y30.8924 Z-0.1 I0.0063 J-0.0108
G2 X20.6427 Y30.8816 Z-0.1333 I-0.0125 J0.0
G2 Y30.9033 Z-0.1667 I0.0062 J0.0108
G2 X20.6615 Y30.8924 Z-0.2 I0.0063 J-0.0108
G2 X20.6427 Y30.8816 Z-0.2333 I-0.0125 J0.0
G2 Y30.9033 Z-0.2667 I0.0062 J0.0108
G2 X20.6615 Y30.8924 Z-0.3 I0.0063 J-0.0108
G2 X20.6427 Y30.8816 Z-0.3333 I-0.0125 J0.0
G2 Y30.9033 Z-0.3667 I0.0062 J0.0108
G2 X20.6615 Y30.8924 Z-0.4 I0.0063 J-0.0108
G2 X20.6427 Y30.8816 Z-0.4333 I-0.0125 J0.0
G2 Y30.9033 Z-0.4667 I0.0062 J0.0108
G2 X20.6615 Y30.8924 Z-0.5 I0.0063 J-0.0108
G2 X20.6427 Y30.8816 Z-0.5333 I-0.0125 J0.0
G2 Y30.9033 Z-0.5667 I0.0062 J0.0108
G2 X20.6615 Y30.8924 Z-0.6 I0.0063 J-0.0108
G2 X20.6427 Y30.8816 Z-0.6333 I-0.0125 J0.0
G2 Y30.9033 Z-0.6667 I0.0062 J0.0108
G2 X20.6615 Y30.8924 Z-0.7 I0.0063 J-0.0108
G2 X20.6427 Y30.8816 Z-0.7333 I-0.0125 J0.0
G2 Y30.9033 Z-0.7667 I0.0062 J0.0108
G2 X20.6615 Y30.8924 Z-0.8 I0.0063 J-0.0108
G2 X20.6427 Y30.8816 Z-0.8333 I-0.0125 J0.0
G2 Y30.9033 Z-0.8667 I0.0062 J0.0108
G2 X20.6615 Y30.8924 Z-0.9 I0.0063 J-0.0108
G2 X20.6427 Y30.8816 Z-0.9333 I-0.0125 J0.0
G2 Y30.9033 Z-0.9667 I0.0062 J0.0108
G2 X20.6615 Y30.8924 Z-1.0 I0.0063 J-0.0108
G2 X20.6427 Y30.8816 Z-1.0333 I-0.0125 J0.0
G2 Y30.9033 Z-1.0667 I0.0062 J0.0108
G2 X20.6615 Y30.8924 Z-1.1 I0.0063 J-0.0108
G2 X20.6427 Y30.8816 Z-1.1333 I-0.0125 J0.0
G2 Y30.9033 Z-1.1667 I0.0062 J0.0108
G2 X20.6615 Y30.8924 Z-1.2 I0.0063 J-0.0108
G2 X20.6427 Y30.8816 Z-1.2333 I-0.0125 J0.0
G2 Y30.9033 Z-1.2667 I0.0062 J0.0108
G2 X20.6615 Y30.8924 Z-1.3 I0.0063 J-0.0108
G2 X20.6427 Y30.8816 Z-1.3333 I-0.0125 J0.0
G2 Y30.9033 Z-1.3667 I0.0062 J0.0108
G2 X20.6615 Y30.8924 Z-1.4 I0.0063 J-0.0108
G2 X20.6427 Y30.8816 Z-1.4333 I-0.0125 J0.0
G2 Y30.9033 Z-1.4667 I0.0062 J0.0108
G2 X20.6615 Y30.8924 Z-1.5 I0.0063 J-0.0108
G2 X20.6427 Y30.8816 Z-1.5333 I-0.0125 J0.0
G2 Y30.9033 Z-1.5667 I0.0062 J0.0108
G2 X20.6615 Y30.8924 Z-1.6 I0.0063 J-0.0108
G2 X20.6427 Y30.8816 Z-1.6333 I-0.0125 J0.0
G2 Y30.9033 Z-1.6667 I0.0062 J0.0108
G2 X20.6615 Y30.8924 Z-1.7 I0.0063 J-0.0108
G2 X20.6427 Y30.8816 Z-1.7333 I-0.0125 J0.0
G2 Y30.9033 Z-1.7667 I0.0062 J0.0108
G2 X20.6615 Y30.8924 Z-1.8 I0.0063 J-0.0108
G2 X20.6427 Y30.8816 Z-1.8333 I-0.0125 J0.0
G2 Y30.9033 Z-1.8667 I0.0062 J0.0108
G2 X20.6615 Y30.8924 Z-1.9 I0.0063 J-0.0108
G2 X20.6427 Y30.8816 Z-1.9333 I-0.0125 J0.0
G2 Y30.9033 Z-1.9667 I0.0062 J0.0108
G2 X20.6615 Y30.8924 Z-2.0 I0.0063 J-0.0108
G2 X20.6427 Y30.8816 Z-2.0333 I-0.0125 J0.0
G2 Y30.9033 Z-2.0667 I0.0062 J0.0108
G2 X20.6615 Y30.8924 Z-2.1 I0.0063 J-0.0108
G2 X20.6427 Y30.8816 Z-2.1333 I-0.0125 J0.0
G2 Y30.9033 Z-2.1667 I0.0062 J0.0108
G2 X20.6615 Y30.8924 Z-2.2 I0.0063 J-0.0108
G2 X20.6427 Y30.8816 Z-2.2333 I-0.0125 J0.0
G2 Y30.9033 Z-2.2667 I0.0062 J0.0108
G2 X20.6615 Y30.8924 Z-2.3 I0.0063 J-0.0108
G2 X20.6427 Y30.8816 Z-2.3333 I-0.0125 J0.0
G2 Y30.9033 Z-2.3667 I0.0062 J0.0108
G2 X20.6615 Y30.8924 Z-2.4 I0.0063 J-0.0108
G2 X20.6427 Y30.8816 Z-2.4333 I-0.0125 J0.0
G2 Y30.9033 Z-2.4667 I0.0063 J0.0108
G2 X20.6615 Y30.8924 Z-2.5 I0.0062 J-0.0108
G2 X20.6427 Y30.8816 Z-2.5333 I-0.0125 J0.0
G2 Y30.9033 Z-2.5667 I0.0063 J0.0108
G2 X20.6615 Y30.8924 Z-2.6 I0.0062 J-0.0108
G2 X20.6427 Y30.8816 Z-2.6333 I-0.0125 J0.0
G2 Y30.9033 Z-2.6667 I0.0063 J0.0108
G2 X20.6615 Y30.8924 Z-2.7 I0.0062 J-0.0108
G2 X20.6427 Y30.8816 Z-2.7333 I-0.0125 J0.0
G2 Y30.9033 Z-2.7667 I0.0063 J0.0108
G2 X20.6615 Y30.8924 Z-2.8 I0.0062 J-0.0108
G2 X20.6427 Y30.8816 Z-2.8333 I-0.0125 J0.0
G2 Y30.9033 Z-2.8667 I0.0063 J0.0108
G2 X20.6615 Y30.8924 Z-2.9 I0.0062 J-0.0108
G2 X20.6427 Y30.8816 Z-2.9333 I-0.0125 J0.0
G2 Y30.9033 Z-2.9667 I0.0063 J0.0108
G2 X20.6615 Y30.8924 Z-3.0 I0.0062 J-0.0108
G2 X20.6427 Y30.8816 Z-3.0333 I-0.0125 J0.0
G2 Y30.9033 Z-3.0667 I0.0063 J0.0108
G2 X20.6615 Y30.8924 Z-3.1 I0.0062 J-0.0108
G2 X20.6427 Y30.8816 Z-3.1333 I-0.0125 J0.0
G2 Y30.9033 Z-3.1667 I0.0063 J0.0108
G2 X20.6615 Y30.8924 Z-3.2 I0.0062 J-0.0108
G2 X20.6427 Y30.8816 I-0.0125 J0.0
G2 Y30.9033 I0.0063 J0.0108
G2 X20.6615 Y30.8924 I0.0062 J-0.0108
G0 Z3.0
G0 Y19.5503
G1 F1000.0 Z0.0
G2 F2000.0 X20.6427 Y19.5395 Z-0.0333 I-0.0125 J0.0
G2 Y19.5611 Z-0.0667 I0.0062 J0.0108
G2 X20.6615 Y19.5503 Z-0.1 I0.0063 J-0.0108
G2 X20.6427 Y19.5395 Z-0.1333 I-0.0125 J0.0
G2 Y19.5611 Z-0.1667 I0.0062 J0.0108
G2 X20.6615 Y19.5503 Z-0.2 I0.0063 J-0.0108
G2 X20.6427 Y19.5395 Z-0.2333 I-0.0125 J0.0
G2 Y19.5611 Z-0.2667 I0.0062 J0.0108
G2 X20.6615 Y19.5503 Z-0.3 I0.0063 J-0.0108
G2 X20.6427 Y19.5395 Z-0.3333 I-0.0125 J0.0
G2 Y19.5611 Z-0.3667 I0.0062 J0.0108
G2 X20.6615 Y19.5503 Z-0.4 I0.0063 J-0.0108
G2 X20.6427 Y19.5395 Z-0.4333 I-0.0125 J0.0
G2 Y19.5611 Z-0.4667 I0.0062 J0.0108
G2 X20.6615 Y19.5503 Z-0.5 I0.0063 J-0.0108
G2 X20.6427 Y19.5395 Z-0.5333 I-0.0125 J0.0
G2 Y19.5611 Z-0.5667 I0.0062 J0.0108
G2 X20.6615 Y19.5503 Z-0.6 I0.0063 J-0.0108
G2 X20.6427 Y19.5395 Z-0.6333 I-0.0125 J0.0
G2 Y19.5611 Z-0.6667 I0.0062 J0.0108
G2 X20.6615 Y19.5503 Z-0.7 I0.0063 J-0.0108
G2 X20.6427 Y19.5395 Z-0.7333 I-0.0125 J0.0
G2 Y19.5611 Z-0.7667 I0.0062 J0.0108
G2 X20.6615 Y19.5503 Z-0.8 I0.0063 J-0.0108
G2 X20.6427 Y19.5395 Z-0.8333 I-0.0125 J0.0
G2 Y19.5611 Z-0.8667 I0.0062 J0.0108
G2 X20.6615 Y19.5503 Z-0.9 I0.0063 J-0.0108
G2 X20.6427 Y19.5395 Z-0.9333 I-0.0125 J0.0
G2 Y19.5611 Z-0.9667 I0.0062 J0.0108
G2 X20.6615 Y19.5503 Z-1.0 I0.0063 J-0.0108
G2 X20.6427 Y19.5395 Z-1.0333 I-0.0125 J0.0
G2 Y19.5611 Z-1.0667 I0.0062 J0.0108
G2 X20.6615 Y19.5503 Z-1.1 I0.0063 J-0.0108
G2 X20.6427 Y19.5395 Z-1.1333 I-0.0125 J0.0
G2 Y19.5611 Z-1.1667 I0.0062 J0.0108
G2 X20.6615 Y19.5503 Z-1.2 I0.0063 J-0.0108
G2 X20.6427 Y19.5395 Z-1.2333 I-0.0125 J0.0
G2 Y19.5611 Z-1.2667 I0.0062 J0.0108
G2 X20.6615 Y19.5503 Z-1.3 I0.0063 J-0.0108
G2 X20.6427 Y19.5395 Z-1.3333 I-0.0125 J0.0
G2 Y19.5611 Z-1.3667 I0.0062 J0.0108
G2 X20.6615 Y19.5503 Z-1.4 I0.0063 J-0.0108
G2 X20.6427 Y19.5395 Z-1.4333 I-0.0125 J0.0
G2 Y19.5611 Z-1.4667 I0.0062 J0.0108
G2 X20.6615 Y19.5503 Z-1.5 I0.0063 J-0.0108
G2 X20.6427 Y19.5395 Z-1.5333 I-0.0125 J0.0
G2 Y19.5611 Z-1.5667 I0.0062 J0.0108
G2 X20.6615 Y19.5503 Z-1.6 I0.0063 J-0.0108
G2 X20.6427 Y19.5395 Z-1.6333 I-0.0125 J0.0
G2 Y19.5611 Z-1.6667 I0.0062 J0.0108
G2 X20.6615 Y19.5503 Z-1.7 I0.0063 J-0.0108
G2 X20.6427 Y19.5395 Z-1.7333 I-0.0125 J0.0
G2 Y19.5611 Z-1.7667 I0.0062 J0.0108
G2 X20.6615 Y19.5503 Z-1.8 I0.0063 J-0.0108
G2 X20.6427 Y19.5395 Z-1.8333 I-0.0125 J0.0
G2 Y19.5611 Z-1.8667 I0.0062 J0.0108
G2 X20.6615 Y19.5503 Z-1.9 I0.0063 J-0.0108
G2 X20.6427 Y19.5395 Z-1.9333 I-0.0125 J0.0
G2 Y19.5611 Z-1.9667 I0.0062 J0.0108
G2 X20.6615 Y19.5503 Z-2.0 I0.0063 J-0.0108
G2 X20.6427 Y19.5395 Z-2.0333 I-0.0125 J0.0
G2 Y19.5611 Z-2.0667 I0.0062 J0.0108
G2 X20.6615 Y19.5503 Z-2.1 I0.0063 J-0.0108
G2 X20.6427 Y19.5395 Z-2.1333 I-0.0125 J0.0
G2 Y19.5611 Z-2.1667 I0.0062 J0.0108
G2 X20.6615 Y19.5503 Z-2.2 I0.0063 J-0.0108
G2 X20.6427 Y19.5395 Z-2.2333 I-0.0125 J0.0
G2 Y19.5611 Z-2.2667 I0.0062 J0.0108
G2 X20.6615 Y19.5503 Z-2.3 I0.0063 J-0.0108
G2 X20.6427 Y19.5395 Z-2.3333 I-0.0125 J0.0
G2 Y19.5611 Z-2.3667 I0.0062 J0.0108
G2 X20.6615 Y19.5503 Z-2.4 I0.0063 J-0.0108
G2 X20.6427 Y19.5395 Z-2.4333 I-0.0125 J0.0
G2 Y19.5611 Z-2.4667 I0.0063 J0.0108
G2 X20.6615 Y19.5503 Z-2.5 I0.0062 J-0.0108
G2 X20.6427 Y19.5395 Z-2.5333 I-0.0125 J0.0
G2 Y19.5611 Z-2.5667 I0.0063 J0.0108
G2 X20.6615 Y19.5503 Z-2.6 I0.0062 J-0.0108
G2 X20.6427 Y19.5395 Z-2.6333 I-0.0125 J0.0
G2 Y19.5611 Z-2.6667 I0.0063 J0.0108
G2 X20.6615 Y19.5503 Z-2.7 I0.0062 J-0.0108
G2 X20.6427 Y19.5395 Z-2.7333 I-0.0125 J0.0
G2 Y19.5611 Z-2.7667 I0.0063 J0.0108
G2 X20.6615 Y19.5503 Z-2.8 I0.0062 J-0.0108
G2 X20.6427 Y19.5395 Z-2.8333 I-0.0125 J0.0
G2 Y19.5611 Z-2.8667 I0.0063 J0.0108
G2 X20.6615 Y19.5503 Z-2.9 I0.0062 J-0.0108
G2 X20.6427 Y19.5395 Z-2.9333 I-0.0125 J0.0
G2 Y19.5611 Z-2.9667 I0.0063 J0.0108
G2 X20.6615 Y19.5503 Z-3.0 I0.0062 J-0.0108
G2 X20.6427 Y19.5395 Z-3.0333 I-0.0125 J0.0
G2 Y19.5611 Z-3.0667 I0.0063 J0.0108
G2 X20.6615 Y19.5503 Z-3.1 I0.0062 J-0.0108
G2 X20.6427 Y19.5395 Z-3.1333 I-0.0125 J0.0
G2 Y19.5611 Z-3.1667 I0.0063 J0.0108
G2 X20.6615 Y19.5503 Z-3.2 I0.0062 J-0.0108
G2 X20.6427 Y19.5395 I-0.0125 J0.0
G2 Y19.5611 I0.0063 J0.0108
G2 X20.6615 Y19.5503 I0.0062 J-0.0108
G0 Z3.0
G0 X19.6062 Y3.6159
G1 F1000.0 Z0.0
G2 F2000.0 X19.5875 Y3.6051 Z-0.0333 I-0.0125 J0.0
G2 Y3.6267 Z-0.0667 I0.0063 J0.0108
G2 X19.6062 Y3.6159 Z-0.1 I0.0063 J-0.0108
G2 X19.5875 Y3.6051 Z-0.1333 I-0.0125 J0.0
G2 Y3.6267 Z-0.1667 I0.0063 J0.0108
G2 X19.6062 Y3.6159 Z-0.2 I0.0063 J-0.0108
G2 X19.5875 Y3.6051 Z-0.2333 I-0.0125 J0.0
G2 Y3.6267 Z-0.2667 I0.0063 J0.0108
G2 X19.6062 Y3.6159 Z-0.3 I0.0063 J-0.0108
G2 X19.5875 Y3.6051 Z-0.3333 I-0.0125 J0.0
G2 Y3.6267 Z-0.3667 I0.0063 J0.0108
G2 X19.6062 Y3.6159 Z-0.4 I0.0063 J-0.0108
G2 X19.5875 Y3.6051 Z-0.4333 I-0.0125 J0.0
G2 Y3.6267 Z-0.4667 I0.0063 J0.0108
G2 X19.6062 Y3.6159 Z-0.5 I0.0063 J-0.0108
G2 X19.5875 Y3.6051 Z-0.5333 I-0.0125 J0.0
G2 Y3.6267 Z-0.5667 I0.0063 J0.0108
G2 X19.6062 Y3.6159 Z-0.6 I0.0063 J-0.0108
G2 X19.5875 Y3.6051 Z-0.6333 I-0.0125 J0.0
G2 Y3.6267 Z-0.6667 I0.0063 J0.0108
G2 X19.6062 Y3.6159 Z-0.7 I0.0063 J-0.0108
G2 X19.5875 Y3.6051 Z-0.7333 I-0.0125 J0.0
G2 Y3.6267 Z-0.7667 I0.0063 J0.0108
G2 X19.6062 Y3.6159 Z-0.8 I0.0063 J-0.0108
G2 X19.5875 Y3.6051 Z-0.8333 I-0.0125 J0.0
G2 Y3.6267 Z-0.8667 I0.0063 J0.0108
G2 X19.6062 Y3.6159 Z-0.9 I0.0063 J-0.0108
G2 X19.5875 Y3.6051 Z-0.9333 I-0.0125 J0.0
G2 Y3.6267 Z-0.9667 I0.0063 J0.0108
G2 X19.6062 Y3.6159 Z-1.0 I0.0063 J-0.0108
G2 X19.5875 Y3.6051 Z-1.0333 I-0.0125 J0.0
G2 Y3.6267 Z-1.0667 I0.0063 J0.0108
G2 X19.6062 Y3.6159 Z-1.1 I0.0063 J-0.0108
G2 X19.5875 Y3.6051 Z-1.1333 I-0.0125 J0.0
G2 Y3.6267 Z-1.1667 I0.0063 J0.0108
G2 X19.6062 Y3.6159 Z-1.2 I0.0063 J-0.0108
G2 X19.5875 Y3.6051 Z-1.2333 I-0.0125 J0.0
G2 Y3.6267 Z-1.2667 I0.0062 J0.0108
G2 X19.6062 Y3.6159 Z-1.3 I0.0063 J-0.0108
G2 X19.5875 Y3.6051 Z-1.3333 I-0.0125 J0.0
G2 Y3.6267 Z-1.3667 I0.0062 J0.0108
G2 X19.6062 Y3.6159 Z-1.4 I0.0063 J-0.0108
G2 X19.5875 Y3.6051 Z-1.4333 I-0.0125 J0.0
G2 Y3.6267 Z-1.4667 I0.0062 J0.0108
G2 X19.6062 Y3.6159 Z-1.5 I0.0063 J-0.0108
G2 X19.5875 Y3.6051 Z-1.5333 I-0.0125 J0.0
G2 Y3.6267 Z-1.5667 I0.0062 J0.0108
G2 X19.6062 Y3.6159 Z-1.6 I0.0063 J-0.0108
G2 X19.5875 Y3.6051 Z-1.6333 I-0.0125 J0.0
G2 Y3.6267 Z-1.6667 I0.0062 J0.0108
G2 X19.6062 Y3.6159 Z-1.7 I0.0063 J-0.0108
G2 X19.5875 Y3.6051 Z-1.7333 I-0.0125 J0.0
G2 Y3.6267 Z-1.7667 I0.0062 J0.0108
G2 X19.6062 Y3.6159 Z-1.8 I0.0063 J-0.0108
G2 X19.5875 Y3.6051 Z-1.8333 I-0.0125 J0.0
G2 Y3.6267 Z-1.8667 I0.0062 J0.0108
G2 X19.6062 Y3.6159 Z-1.9 I0.0063 J-0.0108
G2 X19.5875 Y3.6051 Z-1.9333 I-0.0125 J0.0
G2 Y3.6267 Z-1.9667 I0.0062 J0.0108
G2 X19.6062 Y3.6159 Z-2.0 I0.0063 J-0.0108
G2 X19.5875 Y3.6051 Z-2.0333 I-0.0125 J0.0
G2 Y3.6267 Z-2.0667 I0.0062 J0.0108
G2 X19.6062 Y3.6159 Z-2.1 I0.0063 J-0.0108
G2 X19.5875 Y3.6051 Z-2.1333 I-0.0125 J0.0
G2 Y3.6267 Z-2.1667 I0.0062 J0.0108
G2 X19.6062 Y3.6159 Z-2.2 I0.0063 J-0.0108
G2 X19.5875 Y3.6051 Z-2.2333 I-0.0125 J0.0
G2 Y3.6267 Z-2.2667 I0.0063 J0.0108
G2 X19.6062 Y3.6159 Z-2.3 I0.0063 J-0.0108
G2 X19.5875 Y3.6051 Z-2.3333 I-0.0125 J0.0
G2 Y3.6267 Z-2.3667 I0.0063 J0.0108
G2 X19.6062 Y3.6159 Z-2.4 I0.0063 J-0.0108
G2 X19.5875 Y3.6051 Z-2.4333 I-0.0125 J0.0
G2 Y3.6267 Z-2.4667 I0.0063 J0.0108
G2 X19.6062 Y3.6159 Z-2.5 I0.0062 J-0.0108
G2 X19.5875 Y3.6051 Z-2.5333 I-0.0125 J0.0
G2 Y3.6267 Z-2.5667 I0.0063 J0.0108
G2 X19.6062 Y3.6159 Z-2.6 I0.0062 J-0.0108
G2 X19.5875 Y3.6051 Z-2.6333 I-0.0125 J0.0
G2 Y3.6267 Z-2.6667 I0.0063 J0.0108
G2 X19.6062 Y3.6159 Z-2.7 I0.0062 J-0.0108
G2 X19.5875 Y3.6051 Z-2.7333 I-0.0125 J0.0
G2 Y3.6267 Z-2.7667 I0.0063 J0.0108
G2 X19.6062 Y3.6159 Z-2.8 I0.0062 J-0.0108
G2 X19.5875 Y3.6051 Z-2.8333 I-0.0125 J0.0
G2 Y3.6267 Z-2.8667 I0.0063 J0.0108
G2 X19.6062 Y3.6159 Z-2.9 I0.0062 J-0.0108
G2 X19.5875 Y3.6051 Z-2.9333 I-0.0125 J0.0
G2 Y3.6267 Z-2.9667 I0.0063 J0.0108
G2 X19.6062 Y3.6159 Z-3.0 I0.0062 J-0.0108
G2 X19.5875 Y3.6051 Z-3.0333 I-0.0125 J0.0
G2 Y3.6267 Z-3.0667 I0.0063 J0.0108
G2 X19.6062 Y3.6159 Z-3.1 I0.0062 J-0.0108
G2 X19.5875 Y3.6051 Z-3.1333 I-0.0125 J0.0
G2 Y3.6267 Z-3.1667 I0.0063 J0.0108
G2 X19.6062 Y3.6159 Z-3.2 I0.0062 J-0.0108
G2 X19.5875 Y3.6051 I-0.0125 J0.0
G2 Y3.6267 I0.0063 J0.0108
G2 X19.6062 Y3.6159 I0.0062 J-0.0108
( cutout )
S1000
G0 Z3.0
G0 X15.3742 Y-1.5822
G1 F1000.0 Z-0.1
G1 F2000.0 X0.0242
G2 X-1.5633 Y0.0053 I0.0 J1.5875
G1 Y128.5071
G2 X0.0242 Y130.0946 I1.5875 J0.0
G1 X42.5301
G2 X44.1176 Y128.5071 I0.0 J-1.5875
G1 Y0.0053
G2 X42.5301 Y-1.5822 I-1.5875 J0.0
G1 X15.3742
G1 F1000.0 Z-0.2
G1 F2000.0 X0.0242
G2 X-1.5633 Y0.0053 I0.0 J1.5875
G1 Y128.5071
G2 X0.0242 Y130.0946 I1.5875 J0.0
G1 X42.5301
G2 X44.1176 Y128.5071 I0.0 J-1.5875
G1 Y0.0053
G2 X42.5301 Y-1.5822 I-1.5875 J0.0
G1 X15.3742
G1 F1000.0 Z-0.3
G1 F2000.0 X0.0242
G2 X-1.5633 Y0.0053 I0.0 J1.5875
G1 Y128.5071
G2 X0.0242 Y130.0946 I1.5875 J0.0
G1 X42.5301
G2 X44.1176 Y128.5071 I0.0 J-1.5875
G1 Y0.0053
G2 X42.5301 Y-1.5822 I-1.5875 J0.0
G1 X15.3742
G1 F1000.0 Z-0.4
G1 F2000.0 X0.0242
G2 X-1.5633 Y0.0053 I0.0 J1.5875
G1 Y128.5071
G2 X0.0242 Y130.0946 I1.5875 J0.0
G1 X42.5301
G2 X44.1176 Y128.5071 I0.0 J-1.5875
G1 Y0.0053
G2 X42.5301 Y-1.5822 I-1.5875 J0.0
G1 X15.3742
G1 F1000.0 Z-0.5
G1 F2000.0 X0.0242
G2 X-1.5633 Y0.0053 I0.0 J1.5875
G1 Y128.5071
G2 X0.0242 Y130.0946 I1.5875 J0.0
G1 X42.5301
G2 X44.1176 Y128.5071 I0.0 J-1.5875
G1 Y0.0053
G2 X42.5301 Y-1.5822 I-1.5875 J0.0
G1 X15.3742
G1 F1000.0 Z-0.6
G1 F2000.0 X0.0242
G2 X-1.5633 Y0.0053 I0.0 J1.5875
G1 Y128.5071
G2 X0.0242 Y130.0946 I1.5875 J0.0
G1 X42.5301
G2 X44.1176 Y128.5071 I0.0 J-1.5875
G1 Y0.0053
G2 X42.5301 Y-1.5822 I-1.5875 J0.0
G1 X15.3742
G1 F1000.0 Z-0.7
G1 F2000.0 X0.0242
G2 X-1.5633 Y0.0053 I0.0 J1.5875
G1 Y128.5071
G2 X0.0242 Y130.0946 I1.5875 J0.0
G1 X42.5301
G2 X44.1176 Y128.5071 I0.0 J-1.5875
G1 Y0.0053
G2 X42.5301 Y-1.5822 I-1.5875 J0.0
G1 X15.3742
G1 F1000.0 Z-0.8
G1 F2000.0 X0.0242
G2 X-1.5633 Y0.0053 I0.0 J1.5875
G1 Y128.5071
G2 X0.0242 Y130.0946 I1.5875 J0.0
G1 X42.5301
G2 X44.1176 Y128.5071 I0.0 J-1.5875
G1 Y0.0053
G2 X42.5301 Y-1.5822 I-1.5875 J0.0
G1 X15.3742
G1 F1000.0 Z-0.9
G1 F2000.0 X0.0242
G2 X-1.5633 Y0.0053 I0.0 J1.5875
G1 Y128.5071
G2 X0.0242 Y130.0946 I1.5875 J0.0
G1 X42.5301
G2 X44.1176 Y128.5071 I0.0 J-1.5875
G1 Y0.0053
G2 X42.5301 Y-1.5822 I-1.5875 J0.0
G1 X15.3742
G1 F1000.0 Z-1.0
G1 F2000.0 X0.0242
G2 X-1.5633 Y0.0053 I0.0 J1.5875
G1 Y128.5071
G2 X0.0242 Y130.0946 I1.5875 J0.0
G1 X42.5301
G2 X44.1176 Y128.5071 I0.0 J-1.5875
G1 Y0.0053
G2 X42.5301 Y-1.5822 I-1.5875 J0.0
G1 X15.3742
G1 F1000.0 Z-1.1
G1 F2000.0 X0.0242
G2 X-1.5633 Y0.0053 I0.0 J1.5875
G1 Y128.5071
G2 X0.0242 Y130.0946 I1.5875 J0.0
G1 X42.5301
G2 X44.1176 Y128.5071 I0.0 J-1.5875
G1 Y0.0053
G2 X42.5301 Y-1.5822 I-1.5875 J0.0
G1 X15.3742
G1 F1000.0 Z-1.2
G1 F2000.0 X0.0242
G2 X-1.5633 Y0.0053 I0.0 J1.5875
G1 Y128.5071
G2 X0.0242 Y130.0946 I1.5875 J0.0
G1 X42.5301
G2 X44.1176 Y128.5071 I0.0 J-1.5875
G1 Y0.0053
G2 X42.5301 Y-1.5822 I-1.5875 J0.0
G1 X15.3742
G1 F1000.0 Z-1.3
G1 F2000.0 X0.0242
G2 X-1.5633 Y0.0053 I0.0 J1.5875
G1 Y27.2385
G1 Y29.326 Z-1.2
G1 Y31.4135 Z-1.3
G1 Y116.5799
G1 Y118.6674 Z-1.2
G1 Y120.7549 Z-1.3
G1 Y128.5071
G2 X0.0242 Y130.0946 I1.5875 J0.0
G1 X42.5301
G2 X44.1176 Y128.5071 I0.0 J-1.5875
G1 Y93.599
G1 Y91.5115 Z-1.2
G1 Y89.424 Z-1.3
G1 Y13.2309
G1 Y11.1433 Z-1.2
G1 Y9.0558 Z-1.3
G1 Y0.0053
G2 X42.5301 Y-1.5822 I-1.5875 J0.0
G1 X15.3742
G1 F1000.0 Z-1.4
G1 F2000.0 X0.0242
G2 X-1.5633 Y0.0053 I0.0 J1.5875
G1 Y27.2385
G1 Y29.326 Z-1.2
G1 Y31.4135 Z-1.4
G1 Y116.5799
G1 Y118.6674 Z-1.2
G1 Y120.7549 Z-1.4
G1 Y128.5071
G2 X0.0242 Y130.0946 I1.5875 J0.0
G1 X42.5301
G2 X44.1176 Y128.5071 I0.0 J-1.5875
G1 Y93.599
G1 Y91.5115 Z-1.2
G1 Y89.424 Z-1.4
G1 Y13.2309
G1 Y11.1433 Z-1.2
G1 Y9.0558 Z-1.4
G1 Y0.0053
G2 X42.5301 Y-1.5822 I-1.5875 J0.0
G1 X15.3742
G1 F1000.0 Z-1.5
G1 F2000.0 X0.0242
G2 X-1.5633 Y0.0053 I0.0 J1.5875
G1 Y27.2385
G1 Y29.326 Z-1.2
G1 Y31.4135 Z-1.5
G1 Y116.5799
G1 Y118.6674 Z-1.2
G1 Y120.7549 Z-1.5
G1 Y128.5071
G2 X0.0242 Y130.0946 I1.5875 J0.0
G1 X42.5301
G2 X44.1176 Y128.5071 I0.0 J-1.5875
G1 Y93.599
G1 Y91.5115 Z-1.2
G1 Y89.424 Z-1.5
G1 Y13.2309
G1 Y11.1433 Z-1.2
G1 Y9.0558 Z-1.5
G1 Y0.0053
G2 X42.5301 Y-1.5822 I-1.5875 J0.0
G1 X15.3742
G1 F1000.0 Z-1.6
G1 F2000.0 X0.0242
G2 X-1.5633 Y0.0053 I0.0 J1.5875
G1 Y27.2385
G1 Y29.326 Z-1.2
G1 Y31.4135 Z-1.6
G1 Y116.5799
G1 Y118.6674 Z-1.2
G1 Y120.7549 Z-1.6
G1 Y128.5071
G2 X0.0242 Y130.0946 I1.5875 J0.0
G1 X42.5301
G2 X44.1176 Y128.5071 I0.0 J-1.5875
G1 Y93.599
G1 Y91.5115 Z-1.2
G1 Y89.424 Z-1.6
G1 Y13.2309
G1 Y11.1433 Z-1.2
G1 Y9.0558 Z-1.6
G1 Y0.0053
G2 X42.5301 Y-1.5822 I-1.5875 J0.0
G1 X15.3742
G1 F1000.0 Z-1.7
G1 F2000.0 X0.0242
G2 X-1.5633 Y0.0053 I0.0 J1.5875
G1 Y27.2385
G1 Y29.326 Z-1.2
G1 Y31.4135 Z-1.7
G1 Y116.5799
G1 Y118.6674 Z-1.2
G1 Y120.7549 Z-1.7
G1 Y128.5071
G2 X0.0242 Y130.0946 I1.5875 J0.0
G1 X42.5301
G2 X44.1176 Y128.5071 I0.0 J-1.5875
G1 Y93.599
G1 Y91.5115 Z-1.2
G1 Y89.424 Z-1.7
G1 Y13.2309
G1 Y11.1433 Z-1.2
G1 Y9.0558 Z-1.7
G1 Y0.0053
G2 X42.5301 Y-1.5822 I-1.5875 J0.0
G1 X15.3742
G1 F1000.0 Z-1.8
G1 F2000.0 X0.0242
G2 X-1.5633 Y0.0053 I0.0 J1.5875
G1 Y27.2385
G1 Y29.326 Z-1.2
G1 Y31.4135 Z-1.8
G1 Y116.5799
G1 Y118.6674 Z-1.2
G1 Y120.7549 Z-1.8
G1 Y128.5071
G2 X0.0242 Y130.0946 I1.5875 J0.0
G1 X42.5301
G2 X44.1176 Y128.5071 I0.0 J-1.5875
G1 Y93.599
G1 Y91.5115 Z-1.2
G1 Y89.424 Z-1.8
G1 Y13.2309
G1 Y11.1433 Z-1.2
G1 Y9.0558 Z-1.8
G1 Y0.0053
G2 X42.5301 Y-1.5822 I-1.5875 J0.0
G1 X15.3742
G1 F1000.0 Z-1.9
G1 F2000.0 X0.0242
G2 X-1.5633 Y0.0053 I0.0 J1.5875
G1 Y27.2385
G1 Y29.326 Z-1.2
G1 Y31.4135 Z-1.9
G1 Y116.5799
G1 Y118.6674 Z-1.2
G1 Y120.7549 Z-1.9
G1 Y128.5071
G2 X0.0242 Y130.0946 I1.5875 J0.0
G1 X42.5301
G2 X44.1176 Y128.5071 I0.0 J-1.5875
G1 Y93.599
G1 Y91.5115 Z-1.2
G1 Y89.424 Z-1.9
G1 Y13.2309
G1 Y11.1433 Z-1.2
G1 Y9.0558 Z-1.9
G1 Y0.0053
G2 X42.5301 Y-1.5822 I-1.5875 J0.0
G1 X15.3742
G1 F1000.0 Z-2.0
G1 F2000.0 X0.0242
G2 X-1.5633 Y0.0053 I0.0 J1.5875
G1 Y27.2385
G1 Y29.326 Z-1.2
G1 Y31.4135 Z-2.0
G1 Y116.5799
G1 Y118.6674 Z-1.2
G1 Y120.7549 Z-2.0
G1 Y128.5071
G2 X0.0242 Y130.0946 I1.5875 J0.0
G1 X42.5301
G2 X44.1176 Y128.5071 I0.0 J-1.5875
G1 Y93.599
G1 Y91.5115 Z-1.2
G1 Y89.424 Z-2.0
G1 Y13.2309
G1 Y11.1433 Z-1.2
G1 Y9.0558 Z-2.0
G1 Y0.0053
G2 X42.5301 Y-1.5822 I-1.5875 J0.0
G1 X15.3742
G1 F1000.0 Z-2.1
G1 F2000.0 X0.0242
G2 X-1.5633 Y0.0053 I0.0 J1.5875
G1 Y27.2385
G1 Y29.326 Z-1.2
G1 Y31.4135 Z-2.1
G1 Y116.5799
G1 Y118.6674 Z-1.2
G1 Y120.7549 Z-2.1
G1 Y128.5071
G2 X0.0242 Y130.0946 I1.5875 J0.0
G1 X42.5301
G2 X44.1176 Y128.5071 I0.0 J-1.5875
G1 Y93.599
G1 Y91.5115 Z-1.2
G1 Y89.424 Z-2.1
G1 Y13.2309
G1 Y11.1433 Z-1.2
G1 Y9.0558 Z-2.1
G1 Y0.0053
G2 X42.5301 Y-1.5822 I-1.5875 J0.0
G1 X15.3742
G1 F1000.0 Z-2.2
G1 F2000.0 X0.0242
G2 X-1.5633 Y0.0053 I0.0 J1.5875
G1 Y27.2385
G1 Y29.326 Z-1.2
G1 Y31.4135 Z-2.2
G1 Y116.5799
G1 Y118.6674 Z-1.2
G1 Y120.7549 Z-2.2
G1 Y128.5071
G2 X0.0242 Y130.0946 I1.5875 J0.0
G1 X42.5301
G2 X44.1176 Y128.5071 I0.0 J-1.5875
G1 Y93.599
G1 Y91.5115 Z-1.2
G1 Y89.424 Z-2.2
G1 Y13.2309
G1 Y11.1433 Z-1.2
G1 Y9.0558 Z-2.2
G1 Y0.0053
G2 X42.5301 Y-1.5822 I-1.5875 J0.0
G1 X15.3742
G1 F1000.0 Z-2.3
G1 F2000.0 X0.0242
G2 X-1.5633 Y0.0053 I0.0 J1.5875
G1 Y27.2385
G1 Y29.326 Z-1.2
G1 Y31.4135 Z-2.3
G1 Y116.5799
G1 Y118.6674 Z-1.2
G1 Y120.7549 Z-2.3
G1 Y128.5071
G2 X0.0242 Y130.0946 I1.5875 J0.0
G1 X42.5301
G2 X44.1176 Y128.5071 I0.0 J-1.5875
G1 Y93.599
G1 Y91.5115 Z-1.2
G1 Y89.424 Z-2.3
G1 Y13.2309
G1 Y11.1433 Z-1.2
G1 Y9.0558 Z-2.3
G1 Y0.0053
G2 X42.5301 Y-1.5822 I-1.5875 J0.0
G1 X15.3742
G1 F1000.0 Z-2.4
G1 F2000.0 X0.0242
G2 X-1.5633 Y0.0053 I0.0 J1.5875
G1 Y27.2385
G1 Y29.326 Z-1.2
G1 Y31.4135 Z-2.4
G1 Y116.5799
G1 Y118.6674 Z-1.2
G1 Y120.7549 Z-2.4
G1 Y128.5071
G2 X0.0242 Y130.0946 I1.5875 J0.0
G1 X42.5301
G2 X44.1176 Y128.5071 I0.0 J-1.5875
G1 Y93.599
G1 Y91.5115 Z-1.2
G1 Y89.424 Z-2.4
G1 Y13.2309
G1 Y11.1433 Z-1.2
G1 Y9.0558 Z-2.4
G1 Y0.0053
G2 X42.5301 Y-1.5822 I-1.5875 J0.0
G1 X15.3742
G1 F1000.0 Z-2.5
G1 F2000.0 X0.0242
G2 X-1.5633 Y0.0053 I0.0 J1.5875
G1 Y27.2385
G1 Y29.326 Z-1.2
G1 Y31.4135 Z-2.5
G1 Y116.5799
G1 Y118.6674 Z-1.2
G1 Y120.7549 Z-2.5
G1 Y128.5071
G2 X0.0242 Y130.0946 I1.5875 J0.0
G1 X42.5301
G2 X44.1176 Y128.5071 I0.0 J-1.5875
G1 Y93.599
G1 Y91.5115 Z-1.2
G1 Y89.424 Z-2.5
G1 Y13.2309
G1 Y11.1433 Z-1.2
G1 Y9.0558 Z-2.5
G1 Y0.0053
G2 X42.5301 Y-1.5822 I-1.5875 J0.0
G1 X15.3742
G1 F1000.0 Z-2.6
G1 F2000.0 X0.0242
G2 X-1.5633 Y0.0053 I0.0 J1.5875
G1 Y27.2385
G1 Y29.326 Z-1.2
G1 Y31.4135 Z-2.6
G1 Y116.5799
G1 Y118.6674 Z-1.2
G1 Y120.7549 Z-2.6
G1 Y128.5071
G2 X0.0242 Y130.0946 I1.5875 J0.0
G1 X42.5301
G2 X44.1176 Y128.5071 I0.0 J-1.5875
G1 Y93.599
G1 Y91.5115 Z-1.2
G1 Y89.424 Z-2.6
G1 Y13.2309
G1 Y11.1433 Z-1.2
G1 Y9.0558 Z-2.6
G1 Y0.0053
G2 X42.5301 Y-1.5822 I-1.5875 J0.0
G1 X15.3742
G1 F1000.0 Z-2.7
G1 F2000.0 X0.0242
G2 X-1.5633 Y0.0053 I0.0 J1.5875
G1 Y27.2385
G1 Y29.326 Z-1.2
G1 Y31.4135 Z-2.7
G1 Y116.5799
G1 Y118.6674 Z-1.2
G1 Y120.7549 Z-2.7
G1 Y128.5071
G2 X0.0242 Y130.0946 I1.5875 J0.0
G1 X42.5301
G2 X44.1176 Y128.5071 I0.0 J-1.5875
G1 Y93.599
G1 Y91.5115 Z-1.2
G1 Y89.424 Z-2.7
G1 Y13.2309
G1 Y11.1433 Z-1.2
G1 Y9.0558 Z-2.7
G1 Y0.0053
G2 X42.5301 Y-1.5822 I-1.5875 J0.0
G1 X15.3742
G1 F1000.0 Z-2.8
G1 F2000.0 X0.0242
G2 X-1.5633 Y0.0053 I0.0 J1.5875
G1 Y27.2385
G1 Y29.326 Z-1.2
G1 Y31.4135 Z-2.8
G1 Y116.5799
G1 Y118.6674 Z-1.2
G1 Y120.7549 Z-2.8
G1 Y128.5071
G2 X0.0242 Y130.0946 I1.5875 J0.0
G1 X42.5301
G2 X44.1176 Y128.5071 I0.0 J-1.5875
G1 Y93.599
G1 Y91.5115 Z-1.2
G1 Y89.424 Z-2.8
G1 Y13.2309
G1 Y11.1433 Z-1.2
G1 Y9.0558 Z-2.8
G1 Y0.0053
G2 X42.5301 Y-1.5822 I-1.5875 J0.0
G1 X15.3742
G1 F1000.0 Z-2.9
G1 F2000.0 X0.0242
G2 X-1.5633 Y0.0053 I0.0 J1.5875
G1 Y27.2385
G1 Y29.326 Z-1.2
G1 Y31.4135 Z-2.9
G1 Y116.5799
G1 Y118.6674 Z-1.2
G1 Y120.7549 Z-2.9
G1 Y128.5071
G2 X0.0242 Y130.0946 I1.5875 J0.0
G1 X42.5301
G2 X44.1176 Y128.5071 I0.0 J-1.5875
G1 Y93.599
G1 Y91.5115 Z-1.2
G1 Y89.424 Z-2.9
G1 Y13.2309
G1 Y11.1433 Z-1.2
G1 Y9.0558 Z-2.9
G1 Y0.0053
G2 X42.5301 Y-1.5822 I-1.5875 J0.0
G1 X15.3742
G1 F1000.0 Z-3.0
G1 F2000.0 X0.0242
G2 X-1.5633 Y0.0053 I0.0 J1.5875
G1 Y27.2385
G1 Y29.326 Z-1.2
G1 Y31.4135 Z-3.0
G1 Y116.5799
G1 Y118.6674 Z-1.2
G1 Y120.7549 Z-3.0
G1 Y128.5071
G2 X0.0242 Y130.0946 I1.5875 J0.0
G1 X42.5301
G2 X44.1176 Y128.5071 I0.0 J-1.5875
G1 Y93.599
G1 Y91.5115 Z-1.2
G1 Y89.424 Z-3.0
G1 Y13.2309
G1 Y11.1433 Z-1.2
G1 Y9.0558 Z-3.0
G1 Y0.0053
G2 X42.5301 Y-1.5822 I-1.5875 J0.0
G1 X15.3742
G1 F1000.0 Z-3.1
G1 F2000.0 X0.0242
G2 X-1.5633 Y0.0053 I0.0 J1.5875
G1 Y27.2385
G1 Y29.326 Z-1.2
G1 Y31.4135 Z-3.1
G1 Y116.5799
G1 Y118.6674 Z-1.2
G1 Y120.7549 Z-3.1
G1 Y128.5071
G2 X0.0242 Y130.0946 I1.5875 J0.0
G1 X42.5301
G2 X44.1176 Y128.5071 I0.0 J-1.5875
G1 Y93.599
G1 Y91.5115 Z-1.2
G1 Y89.424 Z-3.1
G1 Y13.2309
G1 Y11.1433 Z-1.2
G1 Y9.0558 Z-3.1
G1 Y0.0053
G2 X42.5301 Y-1.5822 I-1.5875 J0.0
G1 X15.3742
G1 F1000.0 Z-3.2
G1 F2000.0 X0.0242
G2 X-1.5633 Y0.0053 I0.0 J1.5875
G1 Y27.2385
G1 Y29.326 Z-1.2
G1 Y31.4135 Z-3.2
G1 Y116.5799
G1 Y118.6674 Z-1.2
G1 Y120.7549 Z-3.2
G1 Y128.5071
G2 X0.0242 Y130.0946 I1.5875 J0.0
G1 X42.5301
G2 X44.1176 Y128.5071 I0.0 J-1.5875
G1 Y93.599
G1 Y91.5115 Z-1.2
G1 Y89.424 Z-3.2
G1 Y13.2309
G1 Y11.1433 Z-1.2
G1 Y9.0558 Z-3.2
G1 Y0.0053
G2 X42.5301 Y-1.5822 I-1.5875 J0.0
G1 X15.3742
G0 Z3.0
M5
M30
