(/Applications/pcbgcode.repo/pcb-gcode.ulp)
(Copyright 2005 - 2012 by John Johnson)
(See readme.txt for licensing terms.)
(This file generated from the board:)
(.../Polyvoks VCF/eagle/polyvoks_vcf.brd)
(Current profile is .../pcbgcode.repo/profiles/mach.pp  )
(This file generated 12/30/15 11:23 PM)
(Settings from pcb-machine.h)
(spindle on time = 0.0000)
(spindle speed = 20000.0000)
(tool change at 0.0000  0.0000  3.0000  )
(feed rate xy = F0     )
(feed rate z  = F20    )
(Z Axis Settings)
(  High     Up        Down     Drill)
(1.0000  	0.0500  	-0.0040 	-0.0730 )
(Settings from pcb-defaults.h)
(isolate min = 0.0010)
(isolate max = 0.0150)
(isolate step = 0.0015)
(Generated bottom outlines, bottom drill, )
(Unit of measure: inch)
( Tool|       Size       |  Min Sub |  Max Sub |   Count )
( T01 | 0.700mm 0.0276in | 0.0000in | 0.0000in |       0 )
( T02 | 0.800mm 0.0315in | 0.0000in | 0.0000in |       0 )
( T03 | 0.813mm 0.0320in | 0.0000in | 0.0000in |       0 )
( T04 | 0.914mm 0.0360in | 0.0000in | 0.0000in |       0 )
( T05 | 1.000mm 0.0394in | 0.0000in | 0.0000in |       0 )
( T06 | 1.016mm 0.0400in | 0.0000in | 0.0000in |       0 )
( T07 | 1.200mm 0.0472in | 0.0000in | 0.0000in |       0 )
( T08 | 1.300mm 0.0512in | 0.0000in | 0.0000in |       0 )
(Inch Mode)
G20
(Absolute Coordinates)
G90
S20000
G00 Z1.0000  
G00 X0.0000  Y0.0000  
M03
G04 P0.000000
M05
G00 Z3.0000  
M06 T01  ; 0.0276  
G01 Z0.0000  F20    
M06 
G00 Z0.0500  
M03
G04 P0.000000
G82 X-1.4500 Y1.5500  Z-0.0730 F20    R0.0500  P0.010000
G82 X-1.5500 Y1.5500  
G82 X-1.6500 Y1.5500  
G82 X-1.7500 Y1.5500  
G82 X-1.7500 Y1.8500  
G82 X-1.6500 Y1.8500  
G82 X-1.5500 Y1.8500  
G82 X-1.4500 Y1.8500  
G82 X-2.2000 Y1.7500  
G82 X-2.3000 Y1.7500  
G82 X-2.4000 Y1.7500  
G82 X-2.5000 Y1.7500  
G82 X-2.5000 Y2.0500  
G82 X-2.4000 Y2.0500  
G82 X-2.3000 Y2.0500  
G82 X-2.2000 Y2.0500  
M05
G00 Z3.0000  
G00 X0.0000  Y0.0000  
M06 T02  ; 0.0315  
G01 Z0.0000  F20    
M06 
G00 Z0.0500  
M03
G04 P0.000000
G82 X-0.9300 Y1.1100  Z-0.0730 F20    R0.0500  P0.010000
G82 X-1.2500 Y1.5250  
G82 X-1.2500 Y1.8750  
G82 X-1.9200 Y1.7400  
G82 X-1.9200 Y1.4700  
G82 X-1.8850 Y2.2600  
G82 X-2.1450 Y2.2600  
G82 X-2.7500 Y2.6516  
G82 X-2.7500 Y2.8484  
G82 X-1.3000 Y2.8484  
G82 X-1.3000 Y2.6516  
G82 X-1.2000 Y0.5000  
M05
G00 Z3.0000  
G00 X0.0000  Y0.0000  
M06 T03  ; 0.0320  
G01 Z0.0000  F20    
M06 
G00 Z0.0500  
M03
G04 P0.000000
G82 X-0.2200 Y1.2000  Z-0.0730 F20    R0.0500  P0.010000
G82 X-0.3000 Y1.3000  
G82 X-0.4200 Y1.3000  
G82 X-0.6200 Y1.2000  
G82 X-0.8100 Y1.0700  
G82 X-0.6500 Y0.8500  
G82 X-0.4100 Y1.0700  
G82 X-0.2500 Y0.8500  
G82 X-0.6500 Y1.4500  
G82 X-0.6500 Y1.5500  
G82 X-0.6500 Y1.6500  
G82 X-0.6500 Y1.7500  
G82 X-0.5500 Y1.7250  
G82 X-0.4200 Y1.7000  
G82 X-0.3000 Y1.7000  
G82 X-0.5500 Y1.5250  
G82 X-0.7000 Y1.8800  
G82 X-0.9000 Y1.8800  
G82 X-0.9500 Y1.7500  
G82 X-0.9500 Y1.6500  
G82 X-0.9500 Y1.5500  
G82 X-0.9500 Y1.4500  
G82 X-1.3600 Y1.0700  
G82 X-1.3600 Y0.9200  
G82 X-1.6500 Y0.7500  
G82 X-1.7600 Y0.9200  
G82 X-1.7600 Y1.0700  
G82 X-1.9000 Y1.2700  
G82 X-2.0300 Y1.3600  
G82 X-2.1900 Y1.1000  
G82 X-2.3100 Y1.2300  
G82 X-2.5900 Y1.1000  
G82 X-2.7100 Y1.2300  
G82 X-3.0000 Y1.0500  
G82 X-3.1400 Y1.0200  
G82 X-3.2500 Y1.2500  
G82 X-3.1400 Y1.4200  
G82 X-3.1500 Y1.5000  
G82 X-3.0500 Y1.5000  
G82 X-3.2500 Y1.5000  
G82 X-3.3500 Y1.5000  
G82 X-3.5500 Y1.5500  
G82 X-3.5500 Y1.7500  
G82 X-3.3500 Y1.8000  
G82 X-3.2500 Y1.8000  
G82 X-3.1500 Y1.8000  
G82 X-3.0500 Y1.8000  
G82 X-2.8500 Y1.8250  
G82 X-2.8500 Y1.6250  
G82 X-3.2000 Y2.0500  
G82 X-3.2750 Y2.2000  
G82 X-3.1500 Y2.4000  
G82 X-3.3500 Y2.5500  
G82 X-3.5500 Y2.4000  
G82 X-3.7500 Y2.5500  
G82 X-3.6000 Y2.0500  
G82 X-2.8750 Y2.2000  
G82 X-2.3000 Y2.3500  
G82 X-2.2000 Y2.5500  
G82 X-2.1000 Y2.5500  
G82 X-1.9000 Y2.5500  
G82 X-1.8000 Y2.5500  
G82 X-1.9000 Y2.3500  
G82 X-1.7250 Y2.1500  
G82 X-1.4750 Y1.9500  
G82 X-1.3000 Y2.3000  
G82 X-1.2500 Y2.3750  
G82 X-1.2000 Y2.3000  
G82 X-1.0000 Y2.4500  
G82 X-0.8500 Y2.4000  
G82 X-0.7500 Y2.4000  
G82 X-0.7500 Y2.5000  
G82 X-0.8500 Y2.6000  
G82 X-0.6500 Y2.6500  
G82 X-0.4500 Y2.6500  
G82 X-0.4500 Y2.5000  
G82 X-0.4500 Y2.4000  
G82 X-0.4500 Y2.3000  
G82 X-0.4500 Y2.2000  
G82 X-0.7500 Y2.2000  
G82 X-0.7500 Y2.3000  
G82 X-1.0000 Y2.0500  
G82 X-1.4750 Y2.3500  
G82 X-2.1250 Y2.1500  
G82 X-2.0300 Y1.7600  
G82 X-1.5000 Y1.2700  
G82 X-2.0500 Y0.9000  
G82 X-2.0500 Y0.7500  
G82 X-2.2000 Y0.5500  
G82 X-2.6000 Y0.5500  
G82 X-2.4500 Y0.9000  
G82 X-3.0000 Y0.6500  
G82 X-3.6500 Y1.2500  
M05
G00 Z3.0000  
G00 X0.0000  Y0.0000  
M06 T04  ; 0.0360  
G01 Z0.0000  F20    
M06 
G00 Z0.0500  
M03
G04 P0.000000
G82 X-2.2000 Y1.4500  Z-0.0730 F20    R0.0500  P0.010000
G82 X-2.6000 Y1.4500  
G82 X-2.6000 Y2.4000  
G82 X-3.0000 Y2.4000  
M05
G00 Z3.0000  
G00 X0.0000  Y0.0000  
M06 T05  ; 0.0394  
G01 Z0.0000  F20    
M06 
G00 Z0.0500  
M03
G04 P0.000000
G82 X-1.0021 Y0.2000  Z-0.0730 F20    R0.0500  P0.010000
G82 X-1.1000 Y0.2000  
G82 X-1.1979 Y0.2000  
M05
G00 Z3.0000  
G00 X0.0000  Y0.0000  
M06 T06  ; 0.0400  
G01 Z0.0000  F20    
M06 
G00 Z0.0500  
M03
G04 P0.000000
G82 X-1.7000 Y2.8500  Z-0.0730 F20    R0.0500  P0.010000
G82 X-1.7000 Y2.9500  
G82 X-1.8000 Y2.9500  
G82 X-1.9000 Y2.9500  
G82 X-1.9000 Y2.8500  
G82 X-1.8000 Y2.8500  
G82 X-2.0000 Y2.8500  
G82 X-2.0000 Y2.9500  
G82 X-2.1000 Y2.9500  
G82 X-2.1000 Y2.8500  
G82 X-2.2000 Y2.8500  
G82 X-2.3000 Y2.8500  
G82 X-2.3000 Y2.9500  
G82 X-2.2000 Y2.9500  
G82 X-2.4000 Y2.9500  
G82 X-2.4000 Y2.8500  
M05
G00 Z3.0000  
G00 X0.0000  Y0.0000  
M06 T07  ; 0.0472  
G01 Z0.0000  F20    
M06 
G00 Z0.0500  
M03
G04 P0.000000
G82 X-1.8781 Y0.1500  Z-0.0730 F20    R0.0500  P0.010000
G82 X-2.0750 Y0.1500  
G82 X-2.2719 Y0.1500  
G82 X-2.5531 Y0.1500  
G82 X-2.7500 Y0.1500  
G82 X-2.9469 Y0.1500  
M05
G00 Z3.0000  
G00 X0.0000  Y0.0000  
M06 T08  ; 0.0512  
G01 Z0.0000  F20    
M06 
G00 Z0.0500  
M03
G04 P0.000000
G82 X-0.1700 Y0.0980  Z-0.0730 F20    R0.0500  P0.010000
G82 X-0.2031 Y0.0984  
G82 X-0.2370 Y0.0980  
G82 X-0.6450 Y0.0980  
G82 X-0.6781 Y0.0984  
G82 X-0.7120 Y0.0980  
G82 X-0.8830 Y0.4980  
G82 X-0.8829 Y0.5315  
G82 X-0.8830 Y0.5650  
G82 X-0.7110 Y0.6180  
G82 X-0.6781 Y0.6181  
G82 X-0.6450 Y0.6180  
G82 X-0.4080 Y0.5650  
G82 X-0.4079 Y0.5315  
G82 X-0.4080 Y0.4980  
G82 X-0.2360 Y0.6180  
G82 X-0.2031 Y0.6181  
G82 X-0.1700 Y0.6180  
G82 X-1.4950 Y0.6180  
G82 X-1.5281 Y0.6181  
G82 X-1.5610 Y0.6180  
G82 X-1.7330 Y0.5650  
G82 X-1.7329 Y0.5315  
G82 X-1.7330 Y0.4980  
G82 X-1.5620 Y0.0980  
G82 X-1.5281 Y0.0984  
G82 X-1.4950 Y0.0980  
G82 X-3.2700 Y0.0980  
G82 X-3.3031 Y0.0984  
G82 X-3.3370 Y0.0980  
G82 X-3.7200 Y0.0980  
G82 X-3.7531 Y0.0984  
G82 X-3.7870 Y0.0980  
G82 X-3.9580 Y0.4980  
G82 X-3.9579 Y0.5315  
G82 X-3.9580 Y0.5650  
G82 X-3.7860 Y0.6180  
G82 X-3.7531 Y0.6181  
G82 X-3.7200 Y0.6180  
G82 X-3.5080 Y0.5650  
G82 X-3.5079 Y0.5315  
G82 X-3.5080 Y0.4980  
G82 X-3.3360 Y0.6180  
G82 X-3.3031 Y0.6181  
G82 X-3.2700 Y0.6180  
T01 
G00 Z1.0000  
M05
M02
