(/Applications/pcbgcode.repo/pcb-gcode.ulp)
(Copyright 2005 - 2012 by John Johnson)
(See readme.txt for licensing terms.)
(This file generated from the board:)
(.../Polyvoks VCF/eagle/polyvoks_vcf.brd)
(Current profile is .../pcbgcode.repo/profiles/mach.pp  )
(This file generated 1/1/16 12:23 AM)
(Settings from pcb-machine.h)
(spindle on time = 0.0000)
(spindle speed = 20000.0000)
(tool change at 0.0000  0.0000  3.0000  )
(feed rate xy = F0     )
(feed rate z  = F20    )
(Z Axis Settings)
(  High     Up        Down     Drill)
(1.0000  	0.0500  	-0.0040 	-0.0730 )
(Settings from pcb-defaults.h)
(isolate min = 0.0010)
(isolate max = 0.0150)
(isolate step = 0.0015)
(Generated bottom outlines, bottom drill, )
(Unit of measure: inch)
( Tool|       Size       |  Min Sub |  Max Sub |   Count )
( T01 | 0.700mm 0.0276in | 0.0000in | 0.0000in |       0 )
( T02 | 0.800mm 0.0315in | 0.0000in | 0.0000in |       0 )
( T03 | 0.813mm 0.0320in | 0.0000in | 0.0000in |       0 )
( T04 | 0.914mm 0.0360in | 0.0000in | 0.0000in |       0 )
( T05 | 1.000mm 0.0394in | 0.0000in | 0.0000in |       0 )
( T06 | 1.016mm 0.0400in | 0.0000in | 0.0000in |       0 )
( T07 | 1.200mm 0.0472in | 0.0000in | 0.0000in |       0 )
( T08 | 1.300mm 0.0512in | 0.0000in | 0.0000in |       0 )
(Inch Mode)
G20
(Absolute Coordinates)
G90
S20000
G00 Z1.0000  
G00 X0.0000  Y0.0000  
M03
G04 P0.000000
M05
G00 Z3.0000  
M06 T01  ; 0.0276  
G01 Z0.0000  F20    
M06 
G00 Z0.0500  
M03
G04 P0.000000
G82 X-1.4500 Y1.5500  Z-0.0730 F20    R0.0500  P0.010000
G82 X-1.5500 Y1.5500  
G82 X-1.6500 Y1.5500  
G82 X-1.7500 Y1.5500  
G82 X-1.7500 Y1.8500  
G82 X-1.6500 Y1.8500  
G82 X-1.5500 Y1.8500  
G82 X-1.4500 Y1.8500  
G82 X-2.2100 Y1.9700  
G82 X-2.3100 Y1.9700  
G82 X-2.4100 Y1.9700  
G82 X-2.5100 Y1.9700  
G82 X-2.5100 Y1.6700  
G82 X-2.4100 Y1.6700  
G82 X-2.3100 Y1.6700  
G82 X-2.2100 Y1.6700  
M05
G00 Z3.0000  
G00 X0.0000  Y0.0000  
M06 T02  ; 0.0315  
G01 Z0.0000  F20    
M06 
G00 Z0.0500  
M03
G04 P0.000000
G82 X-0.9400 Y1.1700  Z-0.0730 F20    R0.0500  P0.010000
G82 X-1.2800 Y1.1700  
G82 X-1.2500 Y1.5250  
G82 X-1.2500 Y1.8750  
G82 X-1.3000 Y2.4516  
G82 X-1.3000 Y2.6484  
G82 X-1.8850 Y2.2600  
G82 X-2.1450 Y2.2600  
G82 X-1.9200 Y1.7400  
G82 X-1.9200 Y1.4700  
G82 X-2.7000 Y2.4116  
G82 X-2.7000 Y2.6084  
M05
G00 Z3.0000  
G00 X0.0000  Y0.0000  
M06 T03  ; 0.0320  
G01 Z0.0000  F20    
M06 
G00 Z0.0500  
M03
G04 P0.000000
G82 X-0.2200 Y1.2000  Z-0.0730 F20    R0.0500  P0.010000
G82 X-0.3000 Y1.3000  
G82 X-0.4200 Y1.3000  
G82 X-0.6200 Y1.2000  
G82 X-0.7600 Y1.0700  
G82 X-0.6500 Y0.8500  
G82 X-0.3600 Y1.0700  
G82 X-0.2500 Y0.8500  
G82 X-0.6400 Y1.4000  
G82 X-0.6400 Y1.5000  
G82 X-0.5500 Y1.5250  
G82 X-0.6400 Y1.6000  
G82 X-0.6400 Y1.7000  
G82 X-0.5500 Y1.7250  
G82 X-0.4200 Y1.7000  
G82 X-0.3000 Y1.7000  
G82 X-0.4500 Y2.1600  
G82 X-0.4500 Y2.2600  
G82 X-0.4500 Y2.3600  
G82 X-0.4500 Y2.4600  
G82 X-0.4500 Y2.5700  
G82 X-0.6500 Y2.5700  
G82 X-0.7500 Y2.4600  
G82 X-0.7500 Y2.3600  
G82 X-0.8500 Y2.3600  
G82 X-0.9600 Y2.4100  
G82 X-0.8500 Y2.5600  
G82 X-0.7500 Y2.2600  
G82 X-0.7500 Y2.1600  
G82 X-0.9600 Y2.0100  
G82 X-1.1000 Y1.9750  
G82 X-1.1400 Y2.1800  
G82 X-1.1900 Y2.2550  
G82 X-1.2400 Y2.1800  
G82 X-1.5000 Y1.9750  
G82 X-1.7250 Y2.1500  
G82 X-1.6800 Y2.3800  
G82 X-1.6800 Y2.4800  
G82 X-1.9000 Y2.3500  
G82 X-2.1250 Y2.1500  
G82 X-2.3000 Y2.3500  
G82 X-2.5000 Y2.4000  
G82 X-2.5000 Y2.5000  
G82 X-2.8550 Y1.8800  
G82 X-2.8500 Y1.7250  
G82 X-2.8500 Y1.5250  
G82 X-3.0500 Y1.4000  
G82 X-3.1500 Y1.4000  
G82 X-3.2500 Y1.4000  
G82 X-3.3500 Y1.4000  
G82 X-3.5100 Y1.4500  
G82 X-3.5100 Y1.6500  
G82 X-3.3500 Y1.7000  
G82 X-3.2500 Y1.7000  
G82 X-3.1500 Y1.7000  
G82 X-3.0500 Y1.7000  
G82 X-3.2300 Y1.8000  
G82 X-3.2550 Y1.8800  
G82 X-3.2200 Y1.9800  
G82 X-3.4100 Y2.0900  
G82 X-3.6200 Y1.9800  
G82 X-3.6300 Y1.8000  
G82 X-3.8100 Y2.0900  
G82 X-3.6000 Y1.0500  
G82 X-3.2700 Y1.1600  
G82 X-3.2000 Y1.0500  
G82 X-3.0000 Y1.0500  
G82 X-2.8700 Y1.1600  
G82 X-2.7100 Y1.2300  
G82 X-2.6500 Y1.1000  
G82 X-2.4100 Y0.9100  
G82 X-2.2500 Y1.1000  
G82 X-2.3100 Y1.2300  
G82 X-2.0300 Y1.3600  
G82 X-1.7800 Y1.3100  
G82 X-1.7600 Y0.9700  
G82 X-1.8800 Y0.8100  
G82 X-2.0100 Y0.9100  
G82 X-2.1200 Y0.7100  
G82 X-2.2500 Y0.4500  
G82 X-2.6500 Y0.4500  
G82 X-3.0000 Y0.6500  
G82 X-1.7200 Y0.7100  
G82 X-1.4800 Y0.8100  
G82 X-1.3600 Y0.9700  
G82 X-1.3800 Y1.3100  
G82 X-0.9400 Y1.4000  
G82 X-0.9400 Y1.5000  
G82 X-0.9400 Y1.6000  
G82 X-0.9400 Y1.7000  
G82 X-2.0300 Y1.7600  
M05
G00 Z3.0000  
G00 X0.0000  Y0.0000  
M06 T04  ; 0.0360  
G01 Z0.0000  F20    
M06 
G00 Z0.0500  
M03
G04 P0.000000
G82 X-0.6500 Y1.8300  Z-0.0730 F20    R0.0500  P0.010000
G82 X-0.9500 Y1.8300  
G82 X-2.2000 Y1.4500  
G82 X-2.6000 Y1.4500  
G82 X-2.6000 Y2.0800  
G82 X-3.0000 Y2.0800  
M05
G00 Z3.0000  
G00 X0.0000  Y0.0000  
M06 T05  ; 0.0394  
G01 Z0.0000  F20    
M06 
G00 Z0.0500  
M03
G04 P0.000000
G82 X-1.0021 Y0.2000  Z-0.0730 F20    R0.0500  P0.010000
G82 X-1.1000 Y0.2000  
G82 X-1.1979 Y0.2000  
M05
G00 Z3.0000  
G00 X0.0000  Y0.0000  
M06 T06  ; 0.0400  
G01 Z0.0000  F20    
M06 
G00 Z0.0500  
M03
G04 P0.000000
G82 X-1.7500 Y2.7100  Z-0.0730 F20    R0.0500  P0.010000
G82 X-1.7500 Y2.8100  
G82 X-1.8500 Y2.8100  
G82 X-1.9500 Y2.8100  
G82 X-2.0500 Y2.8100  
G82 X-2.0500 Y2.7100  
G82 X-1.9500 Y2.7100  
G82 X-1.8500 Y2.7100  
G82 X-2.1500 Y2.7100  
G82 X-2.1500 Y2.8100  
G82 X-2.2500 Y2.8100  
G82 X-2.2500 Y2.7100  
G82 X-2.3500 Y2.7100  
G82 X-2.3500 Y2.8100  
G82 X-2.4500 Y2.8100  
G82 X-2.4500 Y2.7100  
M05
G00 Z3.0000  
G00 X0.0000  Y0.0000  
M06 T07  ; 0.0472  
G01 Z0.0000  F20    
M06 
G00 Z0.0500  
M03
G04 P0.000000
G82 X-1.8781 Y0.1500  Z-0.0730 F20    R0.0500  P0.010000
G82 X-2.0750 Y0.1500  
G82 X-2.2719 Y0.1500  
G82 X-2.5531 Y0.1500  
G82 X-2.7500 Y0.1500  
G82 X-2.9469 Y0.1500  
M05
G00 Z3.0000  
G00 X0.0000  Y0.0000  
M06 T08  ; 0.0512  
G01 Z0.0000  F20    
M06 
G00 Z0.0500  
M03
G04 P0.000000
G82 X-0.1700 Y0.0980  Z-0.0730 F20    R0.0500  P0.010000
G82 X-0.2031 Y0.0984  
G82 X-0.2370 Y0.0980  
G82 X-0.6450 Y0.0980  
G82 X-0.6781 Y0.0984  
G82 X-0.7120 Y0.0980  
G82 X-0.8830 Y0.4980  
G82 X-0.8829 Y0.5315  
G82 X-0.8830 Y0.5650  
G82 X-0.7110 Y0.6180  
G82 X-0.6781 Y0.6181  
G82 X-0.6450 Y0.6180  
G82 X-0.4080 Y0.5650  
G82 X-0.4079 Y0.5315  
G82 X-0.4080 Y0.4980  
G82 X-0.2360 Y0.6180  
G82 X-0.2031 Y0.6181  
G82 X-0.1700 Y0.6180  
G82 X-1.4950 Y0.6180  
G82 X-1.5281 Y0.6181  
G82 X-1.5610 Y0.6180  
G82 X-1.7330 Y0.5650  
G82 X-1.7329 Y0.5315  
G82 X-1.7330 Y0.4980  
G82 X-1.5620 Y0.0980  
G82 X-1.5281 Y0.0984  
G82 X-1.4950 Y0.0980  
G82 X-3.2700 Y0.0980  
G82 X-3.3031 Y0.0984  
G82 X-3.3370 Y0.0980  
G82 X-3.7200 Y0.0980  
G82 X-3.7531 Y0.0984  
G82 X-3.7870 Y0.0980  
G82 X-3.9580 Y0.4980  
G82 X-3.9579 Y0.5315  
G82 X-3.9580 Y0.5650  
G82 X-3.7860 Y0.6180  
G82 X-3.7531 Y0.6181  
G82 X-3.7200 Y0.6180  
G82 X-3.5080 Y0.5650  
G82 X-3.5079 Y0.5315  
G82 X-3.5080 Y0.4980  
G82 X-3.3360 Y0.6180  
G82 X-3.3031 Y0.6181  
G82 X-3.2700 Y0.6180  
T01 
G00 Z1.0000  
M05
M02
