(/Applications/pcbgcode.repo/pcb-gcode.ulp)
(Copyright 2005 - 2012 by John Johnson)
(See readme.txt for licensing terms.)
(This file generated from the board:)
(.../Polivoks VCF/eagle/polyvoks_vcf.brd)
(Current profile is .../pcbgcode.repo/profiles/mach.pp  )
(This file generated 1/26/16 11:40 PM)
(Settings from pcb-machine.h)
(spindle on time = 0.0000)
(spindle speed = 15000.0000)
(milling depth = -0.0700)
(tool change at 0.0000  0.0000  3.0000  )
(feed rate xy = F10    )
(feed rate z  = F5     )
(Z Axis Settings)
(  High     Up        Down     Drill)
(1.0000  	0.0500  	-0.0040 	-0.0730 )
(Settings from pcb-defaults.h)
(isolate min = 0.0010)
(isolate max = 0.0170)
(isolate step = 0.0017)
(Generated bottom outlines, bottom drill, )
(Unit of measure: inch)
(Inch Mode)
G20
(Absolute Coordinates)
G90
S15000
G00 Z1.0000  
G00 X0.0000  Y0.0000  
M03
G04 P0.000000
G00 Z0.0500  
G00 X0.0400  Y0.0500  
G01 Z-0.0700 F5     
G01 X-0.0600 Y-0.0400 F10    
G01 X-3.9800 Y-0.0400 
G01 X-4.0400 Y0.0300  
G01 X-4.0400 Y2.8700  
G01 X-4.0000 Y2.9200  
G01 X0.0000  Y2.9200  
G01 X0.0400  Y2.8700  
G01 X0.0400  Y0.0500  
G00 Z0.0500  
G00 X-0.2000 Y0.3800  
G01 Z-0.0700 F5     
G01 X-0.2200 Y0.3800  F10    
G01 X-0.2200 Y0.4000  
G01 X-0.2000 Y0.4000  
G00 Z0.0500  
G00 X-0.1100 Y2.7800  
G01 Z-0.0700 F5     
G01 X-0.1100 Y2.8000  F10    
G01 X-0.0900 Y2.8000  
G00 Z0.0500  
G00 X-0.0900 Y2.7800  
G01 Z-0.0700 F5     
G01 X-0.1100 Y2.7800  F10    
G00 Z0.0500  
G00 X-3.8900 Y2.7800  
G01 Z-0.0700 F5     
G01 X-3.9100 Y2.7800  F10    
G01 X-3.9100 Y2.8000  
G01 X-3.8900 Y2.8000  
G00 Z0.0500  
G00 X-3.7600 Y0.3700  
G01 Z-0.0700 F5     
G01 X-3.7400 Y0.3700  F10    
G00 Z0.0500  
G00 X-3.7600 Y0.3700  
G01 Z-0.0700 F5     
G01 X-3.7600 Y0.3500  F10    
G01 X-3.7400 Y0.3500  
G00 Z1.0000  
M05
M02
